Demon Slayer/OpenGL_Framework/OpenGL_Framework/Assets/LUTs/cool.CUBE
#Created by: Adobe Photoshop Export Color Lookup Plugin
TITLE "Untitled-1"
#LUT size
LUT_3D_SIZE 32
#data domain
DOMAIN_MIN 0.0 0.0 0.0
DOMAIN_MAX 1.0 1.0 1.0
#LUT data points
0.000000 0.000000 0.000000
0.027100 0.002197 0.002258
0.055267 0.003876 0.004272
0.084564 0.005066 0.006012
0.114655 0.005951 0.007263
0.144226 0.006927 0.009186
0.173798 0.008026 0.010925
0.203430 0.008942 0.013123
0.233185 0.009796 0.015320
0.262634 0.010712 0.018158
0.292297 0.011566 0.020691
0.321808 0.012482 0.023193
0.351257 0.013245 0.026642
0.380798 0.014069 0.029633
0.410187 0.014893 0.033051
0.439728 0.015625 0.036591
0.469116 0.016388 0.040497
0.498474 0.017029 0.044769
0.527832 0.017700 0.049072
0.557098 0.018341 0.053864
0.586426 0.018951 0.058533
0.615753 0.019592 0.063049
0.644989 0.020172 0.068054
0.674225 0.020782 0.073181
0.703522 0.021362 0.078064
0.732788 0.021942 0.083008
0.762085 0.022583 0.088043
0.791351 0.023163 0.093109
0.820587 0.023743 0.098083
0.849884 0.024353 0.102844
0.879150 0.024933 0.107971
0.908417 0.025543 0.112762
0.004669 0.028717 0.006409
0.031921 0.030701 0.009430
0.059113 0.032898 0.011383
0.089996 0.033325 0.012848
0.119690 0.034271 0.014557
0.149597 0.035095 0.016571
0.179047 0.036163 0.018402
0.209137 0.036774 0.021057
0.238861 0.037598 0.023499
0.269226 0.037964 0.026672
0.299286 0.038574 0.029633
0.329742 0.038818 0.033386
0.359772 0.039368 0.036407
0.389862 0.039734 0.040436
0.420013 0.040009 0.044647
0.450378 0.040161 0.048950
0.480530 0.040375 0.053619
0.510803 0.040436 0.058441
0.541229 0.040436 0.063843
0.571747 0.040222 0.069794
0.602509 0.039825 0.075928
0.632874 0.039612 0.082214
0.663330 0.039337 0.088470
0.693146 0.039642 0.093567
0.722351 0.040222 0.098724
0.751678 0.040863 0.103241
0.780945 0.041443 0.108124
0.810211 0.042023 0.113129
0.839539 0.042664 0.117859
0.868744 0.043213 0.123047
0.898071 0.043854 0.127899
0.927338 0.044464 0.132690
0.007782 0.058380 0.011688
0.034729 0.060547 0.014404
0.062897 0.062286 0.016327
0.092865 0.063202 0.017883
0.122681 0.064148 0.019470
0.152405 0.065033 0.021515
0.182404 0.065735 0.023834
0.212128 0.066650 0.025940
0.242706 0.066925 0.028931
0.271942 0.067963 0.031616
0.302399 0.068268 0.034912
0.332520 0.068787 0.037933
0.362427 0.069305 0.041351
0.392456 0.069702 0.045288
0.422668 0.070038 0.049530
0.453003 0.070190 0.053833
0.483185 0.070435 0.058044
0.513641 0.070374 0.063416
0.543945 0.070251 0.069244
0.574219 0.070313 0.074493
0.604858 0.070038 0.080322
0.635437 0.069641 0.086792
0.666290 0.069305 0.092834
0.696869 0.068970 0.099121
0.727844 0.068390 0.105591
0.758423 0.068085 0.111969
0.789215 0.067719 0.117981
0.820465 0.066925 0.124878
0.851410 0.066406 0.131104
0.883179 0.065247 0.138611
0.914307 0.064545 0.145416
0.945587 0.063843 0.151886
0.009644 0.088806 0.016296
0.035980 0.091217 0.019592
0.064240 0.092896 0.021515
0.093750 0.094086 0.022614
0.124573 0.094391 0.024780
0.153992 0.095612 0.026123
0.183929 0.096313 0.028564
0.213867 0.097107 0.030853
0.243561 0.097900 0.033478
0.273621 0.098541 0.036133
0.303467 0.099243 0.038818
0.333374 0.099823 0.042084
0.363251 0.100494 0.044952
0.393402 0.100800 0.049072
0.423004 0.101471 0.052673
0.453064 0.101837 0.056671
0.483215 0.102112 0.061249
0.513153 0.102417 0.065826
0.542908 0.102692 0.071136
0.573120 0.102844 0.076080
0.603363 0.102844 0.081421
0.633575 0.102783 0.087433
0.663757 0.102814 0.092682
0.694244 0.102631 0.098724
0.724823 0.102356 0.104614
0.755341 0.102081 0.110840
0.785858 0.101959 0.116486
0.816559 0.101563 0.122742
0.847626 0.100983 0.129089
0.878662 0.100372 0.135773
0.909607 0.099792 0.142303
0.940765 0.099121 0.148865
0.011444 0.119141 0.021820
0.036987 0.121826 0.025726
0.065521 0.123444 0.027130
0.095551 0.124268 0.028870
0.125458 0.125153 0.030487
0.155731 0.125824 0.032227
0.185303 0.126801 0.034363
0.215302 0.127625 0.036163
0.245270 0.128296 0.038696
0.274963 0.129120 0.041229
0.304810 0.129913 0.043884
0.334625 0.130524 0.047058
0.364594 0.131104 0.050354
0.394440 0.131653 0.053802
0.424011 0.132385 0.057373
0.454041 0.132568 0.062347
0.484039 0.132965 0.066376
0.513550 0.133514 0.070923
0.543518 0.133911 0.075226
0.573517 0.134094 0.080414
0.603485 0.134277 0.085754
0.633484 0.134460 0.090851
0.663361 0.134735 0.095917
0.693420 0.134949 0.100739
0.723755 0.134827 0.106537
0.753754 0.134979 0.111847
0.783875 0.135071 0.116974
0.814423 0.134857 0.122925
0.844635 0.134827 0.128662
0.875031 0.134644 0.134552
0.905487 0.134583 0.140259
0.936188 0.134186 0.146545
0.013123 0.149139 0.029266
0.038727 0.151947 0.032318
0.066284 0.153961 0.034454
0.097260 0.154449 0.035461
0.127563 0.155090 0.037201
0.157410 0.156036 0.038727
0.186981 0.157013 0.040863
0.216553 0.157959 0.042969
0.246521 0.158661 0.045471
0.276215 0.159515 0.047974
0.306213 0.160156 0.050568
0.335999 0.160858 0.053711
0.365753 0.161591 0.056427
0.395660 0.162079 0.060303
0.425415 0.162689 0.064148
0.454987 0.163300 0.068176
0.484863 0.163666 0.072540
0.514343 0.164276 0.076874
0.544189 0.164734 0.080902
0.574066 0.165100 0.085297
0.604095 0.165253 0.090790
0.634033 0.165588 0.095276
0.663635 0.166077 0.100006
0.693634 0.166260 0.105164
0.723694 0.166443 0.110260
0.753540 0.166718 0.115234
0.783508 0.166992 0.119995
0.813660 0.167053 0.125458
0.843842 0.167053 0.130981
0.873993 0.167114 0.136505
0.904083 0.167206 0.141815
0.934296 0.167175 0.147461
0.014771 0.179199 0.036713
0.038879 0.182617 0.040649
0.068176 0.183777 0.042236
0.098633 0.184540 0.043152
0.128510 0.185425 0.044952
0.158417 0.186340 0.046417
0.188599 0.186951 0.048645
0.218231 0.187958 0.050812
0.247894 0.188812 0.053253
0.277802 0.189545 0.055725
0.307556 0.190338 0.058289
0.337280 0.191040 0.061401
0.366913 0.191742 0.064575
0.396667 0.192444 0.067810
0.426331 0.193054 0.071442
0.455994 0.193695 0.075043
0.485809 0.194183 0.079437
0.515564 0.194641 0.083801
0.545380 0.195190 0.087555
0.575012 0.195679 0.091888
0.604675 0.196167 0.096497
0.634644 0.196503 0.100739
0.664368 0.196930 0.105377
0.694305 0.197235 0.110016
0.724182 0.197510 0.115021
0.753998 0.197906 0.119690
0.783875 0.198273 0.124298
0.813873 0.198456 0.129456
0.843750 0.198730 0.134521
0.873871 0.198792 0.139923
0.903839 0.199036 0.144928
0.933807 0.199188 0.150146
0.016144 0.209076 0.045654
0.040039 0.212555 0.049774
0.069397 0.213745 0.051361
0.098816 0.214996 0.052551
0.129333 0.215546 0.054108
0.159363 0.216400 0.055542
0.189392 0.217194 0.057587
0.219238 0.217957 0.059875
0.248962 0.218842 0.062164
0.278839 0.219574 0.064667
0.308594 0.220337 0.067322
0.338348 0.221100 0.070343
0.368256 0.221802 0.072998
0.397888 0.222443 0.076538
0.427582 0.223145 0.079865
0.457214 0.223816 0.083282
0.486969 0.224365 0.087280
0.516663 0.225037 0.090607
0.546356 0.225555 0.094818
0.576172 0.226105 0.098663
0.605865 0.226685 0.102661
0.635529 0.227112 0.107208
0.665375 0.227539 0.111694
0.695129 0.227997 0.115936
0.724976 0.228363 0.120636
0.754608 0.228821 0.125061
0.784546 0.229156 0.129578
0.814484 0.229431 0.134460
0.844421 0.229706 0.139465
0.874084 0.230133 0.144196
0.904083 0.230377 0.149109
0.933960 0.230652 0.154114
0.017426 0.238770 0.055969
0.040375 0.242676 0.060242
0.069000 0.244171 0.062042
0.099823 0.244812 0.062927
0.130432 0.245361 0.064453
0.160492 0.246185 0.065826
0.190216 0.247101 0.067810
0.220184 0.247894 0.069855
0.250122 0.248627 0.072174
0.279816 0.249512 0.074463
0.309784 0.250214 0.076996
0.339355 0.251068 0.079712
0.369263 0.251770 0.082306
0.398926 0.252502 0.085449
0.428619 0.253204 0.088684
0.458435 0.253876 0.091827
0.488159 0.254456 0.095703
0.517731 0.255249 0.098602
0.547424 0.255829 0.102570
0.577209 0.256378 0.106262
0.606964 0.256927 0.110046
0.636658 0.257446 0.114380
0.666321 0.257996 0.118347
0.696075 0.258575 0.122467
0.725861 0.258972 0.126984
0.755646 0.259430 0.131317
0.785400 0.259888 0.135559
0.815277 0.260254 0.140198
0.845001 0.260681 0.144775
0.874847 0.261017 0.149506
0.904755 0.261322 0.154175
0.934509 0.261749 0.158752
0.018677 0.268433 0.066589
0.040833 0.272614 0.071533
0.070129 0.273865 0.072845
0.100555 0.274597 0.074066
0.130798 0.275299 0.075531
0.161041 0.276093 0.076782
0.191254 0.276855 0.078217
0.221222 0.277710 0.080231
0.251007 0.278564 0.082245
0.280975 0.279358 0.084442
0.310608 0.280273 0.086670
0.340515 0.280975 0.089294
0.370209 0.281738 0.091919
0.399963 0.282532 0.094574
0.429657 0.283264 0.097534
0.459320 0.284027 0.100494
0.489105 0.284698 0.104065
0.518860 0.285278 0.107727
0.548737 0.285889 0.110901
0.578369 0.286560 0.114471
0.608093 0.287109 0.118286
0.637756 0.287811 0.121735
0.667450 0.288300 0.125946
0.697205 0.288910 0.129578
0.726837 0.289429 0.133820
0.756622 0.289917 0.137939
0.786438 0.290375 0.141998
0.816162 0.290924 0.146332
0.845978 0.291321 0.150818
0.875763 0.291748 0.155365
0.905518 0.292175 0.159729
0.935303 0.292542 0.164429
0.019745 0.298126 0.077515
0.040619 0.302917 0.082794
0.069580 0.304352 0.084106
0.101410 0.304413 0.084839
0.131744 0.305115 0.086273
0.162079 0.305878 0.087433
0.192230 0.306610 0.089111
0.222076 0.307556 0.090607
0.252106 0.308319 0.092560
0.281860 0.309204 0.094604
0.311707 0.310028 0.096680
0.341522 0.310883 0.099182
0.371216 0.311676 0.101959
0.401062 0.312347 0.104828
0.430847 0.313171 0.107056
0.460449 0.313934 0.110291
0.490295 0.314606 0.113098
0.519928 0.315338 0.116241
0.549713 0.316071 0.119263
0.579376 0.316772 0.122742
0.609192 0.317322 0.126465
0.638885 0.317932 0.130066
0.668640 0.318481 0.133850
0.698425 0.319061 0.137543
0.728027 0.319733 0.141235
0.757751 0.320282 0.145142
0.787323 0.320862 0.149292
0.817169 0.321381 0.153076
0.846954 0.321838 0.157410
0.876678 0.322296 0.161774
0.906403 0.322784 0.165955
0.936279 0.323212 0.170563
0.020905 0.327698 0.088531
0.040344 0.333191 0.093964
0.069702 0.334381 0.095551
0.100983 0.334747 0.096252
0.132233 0.335144 0.097046
0.162628 0.335815 0.098389
0.192810 0.336548 0.100067
0.223022 0.337341 0.101440
0.253143 0.338135 0.103027
0.282898 0.339020 0.104919
0.312775 0.339844 0.107178
0.342560 0.340668 0.109467
0.372314 0.341492 0.111725
0.402069 0.342285 0.114319
0.431793 0.343048 0.116974
0.461639 0.343842 0.119659
0.491486 0.344574 0.122284
0.521149 0.345306 0.125397
0.550873 0.346039 0.128448
0.580505 0.346741 0.131683
0.610260 0.347412 0.134918
0.639954 0.348022 0.138550
0.669708 0.348663 0.141876
0.699463 0.349365 0.145416
0.729095 0.349976 0.149139
0.758942 0.350525 0.152740
0.788574 0.351105 0.156799
0.818268 0.351654 0.160797
0.847961 0.352234 0.164642
0.877686 0.352753 0.168793
0.907471 0.353210 0.173065
0.937225 0.353729 0.176941
0.022125 0.357330 0.099304
0.039978 0.363525 0.105377
0.070221 0.364319 0.106567
0.101837 0.364563 0.106842
0.132660 0.365082 0.107941
0.163300 0.365753 0.108948
0.193665 0.366425 0.110382
0.223816 0.367249 0.112091
0.253784 0.368073 0.113800
0.283844 0.368866 0.115601
0.313568 0.369781 0.117432
0.343414 0.370605 0.119629
0.373169 0.371429 0.122070
0.403259 0.372131 0.124115
0.432892 0.372986 0.126556
0.462585 0.373810 0.129272
0.492432 0.374573 0.132019
0.522186 0.375244 0.135040
0.551941 0.376007 0.137695
0.581696 0.376709 0.140747
0.611359 0.377441 0.144012
0.641022 0.378204 0.146942
0.670746 0.378845 0.150299
0.700439 0.379517 0.153870
0.730194 0.380127 0.157379
0.759888 0.380737 0.160950
0.789673 0.381317 0.164703
0.819366 0.381958 0.168274
0.849121 0.382507 0.172211
0.878845 0.383057 0.176147
0.908478 0.383667 0.180023
0.938263 0.384125 0.184204
0.023315 0.387024 0.109955
0.040924 0.393250 0.116302
0.068878 0.395050 0.118439
0.101868 0.394714 0.118225
0.132996 0.395111 0.119110
0.163788 0.395691 0.119995
0.194305 0.396332 0.121338
0.224518 0.397095 0.122894
0.254547 0.397919 0.124481
0.284485 0.398773 0.126221
0.314575 0.399506 0.128021
0.344513 0.400391 0.130066
0.374268 0.401215 0.132202
0.404114 0.402069 0.134308
0.434021 0.402802 0.136658
0.463837 0.403595 0.139038
0.493439 0.404449 0.141815
0.523254 0.405182 0.144379
0.553040 0.405945 0.147125
0.582825 0.406708 0.150085
0.612488 0.407471 0.153015
0.642273 0.408112 0.156128
0.671997 0.408844 0.159180
0.701660 0.409546 0.162476
0.731415 0.410187 0.165833
0.761017 0.410858 0.169342
0.790802 0.411499 0.172699
0.820526 0.412079 0.176392
0.850189 0.412720 0.180115
0.879944 0.413300 0.183746
0.909698 0.413849 0.187744
0.939362 0.414490 0.191681
0.024445 0.416656 0.120758
0.039520 0.423981 0.128387
0.068512 0.425354 0.129913
0.102020 0.424774 0.129395
0.133698 0.424988 0.130188
0.164398 0.425598 0.130981
0.195190 0.426117 0.132233
0.225311 0.426941 0.133667
0.255554 0.427673 0.135223
0.285522 0.428528 0.136841
0.315491 0.429352 0.138550
0.345398 0.430176 0.140472
0.375275 0.431061 0.142273
0.405121 0.431885 0.144470
0.434906 0.432709 0.146759
0.464813 0.433533 0.149048
0.494507 0.434326 0.151703
0.524384 0.435089 0.153992
0.554108 0.435852 0.156799
0.583832 0.436676 0.159424
0.613556 0.437378 0.162567
0.643280 0.438110 0.165314
0.673065 0.438812 0.168396
0.702789 0.439575 0.171417
0.732513 0.440247 0.174805
0.762238 0.440918 0.178070
0.791870 0.441650 0.181244
0.821625 0.442261 0.184784
0.851257 0.442902 0.188324
0.881073 0.443481 0.192078
0.910767 0.444092 0.195648
0.940460 0.444702 0.199463
0.025635 0.446259 0.131744
0.038940 0.454407 0.139832
0.067535 0.455902 0.141571
0.101624 0.455078 0.141022
0.133728 0.455109 0.141205
0.165009 0.455444 0.142120
0.195526 0.456146 0.143158
0.225922 0.456818 0.144501
0.256134 0.457642 0.145966
0.286163 0.458466 0.147522
0.316376 0.459198 0.149323
0.346344 0.460052 0.151001
0.376221 0.460876 0.152863
0.406067 0.461700 0.154999
0.435883 0.462555 0.157166
0.465759 0.463348 0.159302
0.495544 0.464203 0.161652
0.525299 0.465027 0.164032
0.555176 0.465759 0.166687
0.584961 0.466522 0.169220
0.614746 0.467285 0.171906
0.644379 0.468079 0.174652
0.674103 0.468842 0.177643
0.703857 0.469543 0.180725
0.733551 0.470276 0.183685
0.763336 0.470917 0.186890
0.792999 0.471619 0.190125
0.822723 0.472351 0.193481
0.852417 0.473022 0.196747
0.882202 0.473633 0.200378
0.911865 0.474274 0.203979
0.941620 0.474915 0.207367
0.026794 0.475952 0.142578
0.037567 0.485138 0.151733
0.067383 0.486176 0.152954
0.101715 0.485260 0.152161
0.133606 0.485352 0.152527
0.165070 0.485718 0.153137
0.196198 0.486084 0.154144
0.226532 0.486816 0.155396
0.256927 0.487488 0.156769
0.287201 0.488220 0.158203
0.317139 0.489136 0.159790
0.347137 0.489929 0.161530
0.377136 0.490692 0.163513
0.406982 0.491638 0.165222
0.436920 0.492401 0.167267
0.466705 0.493256 0.169525
0.496613 0.494080 0.171814
0.526337 0.494873 0.174225
0.556183 0.495697 0.176483
0.586029 0.496399 0.179260
0.615662 0.497253 0.181732
0.645447 0.498047 0.184296
0.675201 0.498779 0.187103
0.704895 0.499542 0.190033
0.734619 0.500305 0.192932
0.764435 0.500977 0.196014
0.794189 0.501678 0.199188
0.823883 0.502380 0.202240
0.853577 0.503113 0.205505
0.883270 0.503754 0.208923
0.912994 0.504425 0.212250
0.942719 0.505005 0.215820
0.027954 0.505615 0.153381
0.037628 0.515289 0.163055
0.066071 0.516876 0.164825
0.100647 0.515869 0.164063
0.133972 0.515350 0.163757
0.165527 0.515564 0.164398
0.196381 0.516144 0.165222
0.227295 0.516632 0.166321
0.257599 0.517395 0.167511
0.287842 0.518188 0.168884
0.318115 0.518921 0.170380
0.348114 0.519714 0.172272
0.378052 0.520569 0.174011
0.407959 0.521393 0.175964
0.437836 0.522247 0.177979
0.467743 0.523041 0.179932
0.497681 0.523834 0.181915
0.527405 0.524780 0.184235
0.557251 0.525604 0.186371
0.587006 0.526337 0.189026
0.616791 0.527130 0.191498
0.646576 0.527924 0.194122
0.676270 0.528687 0.196808
0.706085 0.529449 0.199524
0.735779 0.530212 0.202423
0.765533 0.530945 0.205170
0.795258 0.531647 0.208313
0.824951 0.532379 0.211456
0.854675 0.533112 0.214508
0.884460 0.533752 0.217865
0.914154 0.534454 0.221039
0.943878 0.535126 0.224335
0.029114 0.535248 0.164032
0.038818 0.544952 0.173737
0.064301 0.547791 0.176880
0.100708 0.545990 0.175232
0.133667 0.545685 0.174988
0.165771 0.545654 0.175446
0.196899 0.546112 0.176239
0.227661 0.546661 0.177338
0.258118 0.547333 0.178528
0.288452 0.548035 0.179901
0.318695 0.548828 0.181305
0.348907 0.549530 0.182922
0.378815 0.550446 0.184479
0.408905 0.551239 0.186371
0.438812 0.552063 0.188263
0.468719 0.552887 0.190247
0.498627 0.553680 0.192444
0.528381 0.554596 0.194366
0.558197 0.555389 0.196716
0.588043 0.556213 0.198944
0.617859 0.557007 0.201355
0.647644 0.557800 0.203949
0.677399 0.558624 0.206451
0.707153 0.559357 0.209137
0.736877 0.560150 0.211884
0.766602 0.560883 0.214813
0.796326 0.561646 0.217529
0.826080 0.562347 0.220551
0.855835 0.563049 0.223694
0.885529 0.563812 0.226654
0.915253 0.564484 0.229919
0.944946 0.565155 0.233215
0.030304 0.564911 0.174866
0.039978 0.574554 0.184570
0.063385 0.578339 0.188629
0.099884 0.576508 0.186829
0.133698 0.575775 0.186279
0.165894 0.575806 0.186646
0.197113 0.576172 0.187408
0.228058 0.576660 0.188385
0.258942 0.577148 0.189453
0.289154 0.577972 0.190765
0.319519 0.578644 0.192078
0.349670 0.579437 0.193695
0.379700 0.580261 0.195282
0.409729 0.581085 0.196960
0.439636 0.581909 0.198761
0.469635 0.582733 0.200592
0.499481 0.583588 0.202759
0.529388 0.584412 0.204803
0.559235 0.585236 0.206940
0.588989 0.586060 0.209229
0.618835 0.586884 0.211487
0.648621 0.587677 0.213898
0.678467 0.588470 0.216278
0.708191 0.589264 0.218933
0.737976 0.590027 0.221558
0.767670 0.590820 0.224304
0.797394 0.591614 0.227020
0.827179 0.592346 0.229950
0.856873 0.593079 0.232880
0.886688 0.593781 0.235870
0.916351 0.594482 0.238983
0.946045 0.595184 0.242126
0.031494 0.594574 0.185730
0.041138 0.604218 0.195526
0.061554 0.609314 0.200592
0.098389 0.607269 0.198883
0.133087 0.606201 0.197968
0.165680 0.606018 0.198090
0.197540 0.606140 0.198334
0.228607 0.606567 0.199219
0.259430 0.607117 0.200348
0.289734 0.607941 0.201569
0.320190 0.608582 0.202850
0.350525 0.609283 0.204315
0.380432 0.610138 0.206024
0.410645 0.610931 0.207458
0.440582 0.611755 0.209229
0.470459 0.612610 0.211304
0.500458 0.613403 0.213104
0.530304 0.614288 0.215240
0.560272 0.615051 0.217163
0.590027 0.615906 0.219452
0.619812 0.616760 0.221649
0.649719 0.617554 0.223907
0.679443 0.618347 0.226471
0.709259 0.619141 0.228851
0.738983 0.619934 0.231384
0.768707 0.620728 0.233917
0.798492 0.621490 0.236664
0.828278 0.622253 0.239349
0.857971 0.622986 0.242188
0.887787 0.623718 0.245209
0.917511 0.624481 0.248108
0.947144 0.625214 0.251190
0.032623 0.624176 0.196594
0.042328 0.633881 0.206299
0.060211 0.640015 0.212585
0.097748 0.637756 0.210358
0.132965 0.636414 0.209320
0.165985 0.636078 0.209137
0.197906 0.636139 0.209564
0.228912 0.636627 0.210480
0.259918 0.637085 0.211365
0.290375 0.637756 0.212494
0.320923 0.638428 0.213776
0.351074 0.639221 0.215210
0.381287 0.639954 0.216705
0.411407 0.640778 0.218262
0.441437 0.641602 0.220001
0.471436 0.642426 0.221863
0.501343 0.643250 0.223694
0.531219 0.644104 0.225525
0.561096 0.644928 0.227539
0.591003 0.645752 0.229584
0.620850 0.646545 0.231842
0.650696 0.647400 0.234131
0.680450 0.648224 0.236450
0.710297 0.649017 0.238892
0.740051 0.649811 0.241333
0.769836 0.650604 0.243866
0.799561 0.651398 0.246490
0.829346 0.652161 0.249115
0.859070 0.652924 0.251984
0.888794 0.653687 0.254730
0.918579 0.654388 0.257538
0.948303 0.655151 0.260437
0.033783 0.653839 0.207306
0.043457 0.663513 0.216980
0.058533 0.670837 0.224609
0.095734 0.668732 0.222504
0.132629 0.666718 0.220673
0.165985 0.666229 0.220459
0.197906 0.666321 0.220886
0.229584 0.666504 0.221405
0.260284 0.667114 0.222382
0.291138 0.667603 0.223541
0.321503 0.668335 0.224670
0.351807 0.669098 0.226013
0.382050 0.669861 0.227386
0.412109 0.670654 0.229065
0.442261 0.671417 0.230682
0.472229 0.672272 0.232361
0.502258 0.673096 0.234283
0.532227 0.673950 0.235962
0.562073 0.674774 0.238068
0.591980 0.675568 0.239990
0.621796 0.676422 0.242065
0.651642 0.677246 0.244415
0.681458 0.678040 0.246552
0.711304 0.678833 0.248901
0.741089 0.679657 0.251251
0.770874 0.680481 0.253845
0.800629 0.681274 0.256287
0.830383 0.682098 0.258881
0.860168 0.682831 0.261597
0.889923 0.683594 0.264252
0.919586 0.684387 0.267029
0.949371 0.685120 0.269775
0.035034 0.683502 0.218109
0.044678 0.693176 0.227875
0.056122 0.702057 0.236786
0.094177 0.699524 0.234528
0.131592 0.697327 0.232452
0.165527 0.696564 0.231964
0.198059 0.696381 0.232117
0.229523 0.696655 0.232605
0.260803 0.697052 0.233307
0.291473 0.697662 0.234497
0.322052 0.698303 0.235596
0.352570 0.698944 0.236877
0.382690 0.699768 0.238312
0.412933 0.700500 0.239868
0.443085 0.701294 0.241302
0.473053 0.702118 0.243042
0.503021 0.702972 0.244659
0.533051 0.703796 0.246552
0.563049 0.704590 0.248474
0.592987 0.705414 0.250488
0.622772 0.706299 0.252472
0.652649 0.707092 0.254700
0.682434 0.707916 0.256775
0.712311 0.708740 0.258972
0.742065 0.709564 0.261383
0.771942 0.710327 0.263672
0.801666 0.711121 0.266205
0.831451 0.711945 0.268738
0.861237 0.712708 0.271271
0.891022 0.713501 0.273895
0.920776 0.714294 0.276642
0.950500 0.715057 0.279358
0.036133 0.713135 0.228973
0.045807 0.722778 0.238647
0.055511 0.732483 0.248444
0.091461 0.730896 0.246857
0.131042 0.727692 0.243988
0.165314 0.726807 0.243195
0.198029 0.726563 0.243317
0.229950 0.726654 0.243744
0.261078 0.727081 0.244568
0.292053 0.727539 0.245422
0.322693 0.728149 0.246613
0.353180 0.728851 0.247772
0.383453 0.729584 0.249084
0.413605 0.730438 0.250519
0.443848 0.731171 0.252045
0.473969 0.731964 0.253693
0.503937 0.732788 0.255402
0.533936 0.733582 0.257202
0.563843 0.734467 0.259064
0.593811 0.735291 0.260773
0.623657 0.736115 0.262939
0.653625 0.736938 0.264923
0.683441 0.737793 0.267090
0.713318 0.738586 0.269348
0.743134 0.739380 0.271545
0.772888 0.740234 0.273834
0.802673 0.741058 0.276245
0.832489 0.741821 0.278595
0.862213 0.742615 0.281189
0.892029 0.743378 0.283752
0.921783 0.744171 0.286346
0.951447 0.744965 0.289032
0.037323 0.742798 0.239716
0.046997 0.752441 0.249512
0.056671 0.762115 0.259155
0.088257 0.762360 0.259613
0.129669 0.758423 0.255890
0.164612 0.757233 0.254883
0.198120 0.756714 0.254608
0.230011 0.756805 0.254883
0.261322 0.757172 0.255615
0.292450 0.757568 0.256439
0.323212 0.758148 0.257538
0.353729 0.758789 0.258759
0.384094 0.759521 0.260040
0.414337 0.760254 0.261475
0.444641 0.760986 0.262848
0.474670 0.761810 0.264465
0.504852 0.762634 0.266022
0.534821 0.763458 0.267792
0.564789 0.764282 0.269592
0.594757 0.765106 0.271454
0.624634 0.765961 0.273346
0.654510 0.766785 0.275360
0.684326 0.767609 0.277435
0.714233 0.768433 0.279510
0.744080 0.769226 0.281677
0.773956 0.770081 0.283966
0.803772 0.770874 0.286377
0.833557 0.771698 0.288666
0.863312 0.772491 0.291107
0.893097 0.773285 0.293610
0.922852 0.774109 0.296082
0.952606 0.774872 0.298737
0.038513 0.772430 0.250641
0.048157 0.782104 0.260254
0.057861 0.791779 0.270081
0.086029 0.793488 0.271820
0.127991 0.789307 0.267792
0.164215 0.787567 0.266235
0.197571 0.787079 0.266022
0.230133 0.786865 0.266174
0.261688 0.787140 0.266754
0.292755 0.787567 0.267548
0.323761 0.788086 0.268494
0.354279 0.788757 0.269653
0.384888 0.789337 0.270966
0.415039 0.790161 0.272156
0.445251 0.790924 0.273590
0.475525 0.791656 0.275208
0.505615 0.792480 0.276764
0.535583 0.793274 0.278473
0.565643 0.794128 0.280121
0.595612 0.794952 0.282104
0.625580 0.795776 0.283936
0.655426 0.796631 0.285736
0.685364 0.797455 0.287781
0.715179 0.798279 0.289886
0.745117 0.799072 0.291992
0.774902 0.799927 0.294189
0.804749 0.800720 0.296478
0.834473 0.801575 0.298676
0.864288 0.802368 0.301178
0.894104 0.803162 0.303589
0.923920 0.803955 0.306061
0.953674 0.804749 0.308624
0.039642 0.802094 0.261353
0.049316 0.811737 0.271027
0.059021 0.821442 0.280914
0.083923 0.824585 0.284119
0.126465 0.820129 0.279724
0.163483 0.818054 0.277924
0.197540 0.817230 0.277374
0.230011 0.817108 0.277405
0.261932 0.817200 0.277863
0.293091 0.817596 0.278717
0.324066 0.818085 0.279572
0.354767 0.818665 0.280548
0.385284 0.819336 0.281830
0.415771 0.820007 0.283081
0.446075 0.820770 0.284454
0.476288 0.821533 0.285919
0.506470 0.822296 0.287567
0.536438 0.823151 0.289124
