Demon Slayer/OpenGL_Framework/OpenGL_Framework/Assets/LUTs/cool.CUBE
#Created by: Adobe Photoshop Export Color Lookup Plugin
TITLE "Untitled-1"
#LUT size
LUT_3D_SIZE 5
#data domain
#LUT data points
DOMAIN_MIN 0.000000 0.000000 0.000000
DOMAIN_MAX 0.903226 0.903226 0.903226
0.000000 0.000000 0.000000
0.203430 0.008942 0.013123
0.410187 0.014893 0.033051
0.615753 0.019592 0.063049
0.820587 0.023743 0.098083
0.016144 0.209076 0.045654
0.219238 0.217957 0.059875
0.427582 0.223145 0.079865
0.635529 0.227112 0.107208
0.844421 0.229706 0.139465
0.024445 0.416656 0.120758
0.225311 0.426941 0.133667
0.434906 0.432709 0.146759
0.643280 0.438110 0.165314
0.851257 0.442902 0.188324
0.032623 0.624176 0.196594
0.228912 0.636627 0.210480
0.441437 0.641602 0.220001
0.650696 0.647400 0.234131
0.859070 0.652924 0.251984
0.040833 0.831757 0.272095
0.230103 0.847229 0.288696
0.446747 0.850616 0.295288
0.657257 0.856262 0.306854
0.866364 0.862091 0.321381
0.000031 0.003937 0.205017
0.186462 0.014526 0.255005
0.404175 0.017151 0.263031
0.614288 0.023102 0.274048
0.822815 0.029327 0.287811
0.016205 0.210358 0.264435
0.205688 0.225677 0.281189
0.423401 0.228485 0.288513
0.635406 0.233154 0.301086
0.847107 0.237183 0.317719
0.030396 0.423065 0.295990
0.217010 0.439697 0.313629
0.435577 0.442291 0.319275
0.647186 0.447479 0.330444
0.857330 0.452759 0.344788
0.042877 0.634735 0.337921
0.224274 0.653656 0.357635
0.445953 0.654968 0.361603
0.658081 0.660065 0.371521
0.868103 0.665710 0.384613
0.054199 0.845306 0.388855
0.227325 0.867737 0.412048
0.454254 0.866913 0.413361
0.667450 0.871674 0.422211
0.877960 0.877289 0.433899
0.000031 0.014282 0.375305
0.114899 0.045319 0.510803
0.378052 0.028076 0.501556
0.602356 0.026917 0.512115
0.814850 0.032043 0.520691
0.013184 0.210602 0.497162
0.139374 0.253204 0.540466
0.400909 0.237396 0.527588
0.621674 0.238708 0.534302
0.837128 0.241852 0.545807
0.029358 0.423676 0.521332
0.150146 0.468567 0.566864
0.415375 0.451355 0.551605
0.635498 0.453278 0.557007
0.849701 0.457367 0.566772
0.043915 0.636688 0.550476
0.153168 0.686584 0.600830
0.427551 0.665466 0.581329
0.648407 0.667145 0.585938
0.862305 0.671539 0.594849
0.057404 0.849121 0.585510
0.143188 0.908997 0.645813
0.437500 0.879486 0.617615
0.659729 0.880615 0.621338
0.874084 0.884857 0.629486
0.000031 0.031311 0.509491
0.038239 0.080170 0.758972
0.318787 0.055664 0.741058
0.565460 0.044525 0.744080
0.796814 0.038788 0.759460
0.007965 0.211945 0.730011
0.075989 0.279480 0.798248
0.353577 0.256866 0.778046
0.594788 0.249603 0.775208
0.817719 0.249786 0.782166
0.026672 0.423889 0.753540
0.094513 0.491455 0.821594
0.370056 0.469940 0.801514
0.611053 0.463013 0.797302
0.832703 0.464111 0.802582
0.042480 0.637054 0.778290
0.110260 0.704681 0.846283
0.382996 0.684387 0.827148
0.625061 0.677094 0.822021
0.846680 0.678375 0.826599
0.057129 0.850098 0.806458
0.124939 0.917786 0.874481
0.393463 0.899323 0.857056
0.637604 0.891205 0.850800
0.859650 0.892334 0.854706
0.000031 0.049805 0.636139
0.017944 0.091797 0.977692
0.198334 0.110748 1.000000
0.505127 0.074158 0.975372
0.748505 0.063965 0.982239
0.000854 0.214539 0.961487
0.078247 0.282806 1.000000
0.255920 0.307281 1.000000
0.546021 0.274628 1.000000
0.775024 0.272980 1.000000
0.022797 0.424438 0.986755
0.120941 0.486877 1.000000
0.297150 0.512115 1.000000
0.569794 0.488342 1.000000
0.787201 0.492554 1.000000
0.049042 0.634491 1.000000
0.177856 0.683777 1.000000
0.355316 0.708344 1.000000
0.607208 0.695160 1.000000
0.809387 0.707123 1.000000
0.105957 0.831329 1.000000
0.270905 0.862274 1.000000
0.458527 0.881653 1.000000
0.685089 0.881287 1.000000
0.868195 0.903046 1.000000
