Demon Slayer/OpenGL_Framework/OpenGL_Framework/Assets/LUTs/cool.CUBE
#Created by: Adobe Photoshop Export Color Lookup Plugin
TITLE "Untitled-1"
#LUT size
LUT_3D_SIZE 8
#data domain
#LUT data points
DOMAIN_MIN 0.000000 0.000000 0.000000
DOMAIN_MAX 0.903226 0.903226 0.903226
0.000000 0.000000 0.000000
0.114655 0.005951 0.007263
0.233185 0.009796 0.015320
0.351257 0.013245 0.026642
0.469116 0.016388 0.040497
0.586426 0.018951 0.058533
0.703522 0.021362 0.078064
0.820587 0.023743 0.098083
0.011444 0.119141 0.021820
0.125458 0.125153 0.030487
0.245270 0.128296 0.038696
0.364594 0.131104 0.050354
0.484039 0.132965 0.066376
0.603485 0.134277 0.085754
0.723755 0.134827 0.106537
0.844635 0.134827 0.128662
0.017426 0.238770 0.055969
0.130432 0.245361 0.064453
0.250122 0.248627 0.072174
0.369263 0.251770 0.082306
0.488159 0.254456 0.095703
0.606964 0.256927 0.110046
0.725861 0.258972 0.126984
0.845001 0.260681 0.144775
0.022125 0.357330 0.099304
0.132660 0.365082 0.107941
0.253784 0.368073 0.113800
0.373169 0.371429 0.122070
0.492432 0.374573 0.132019
0.611359 0.377441 0.144012
0.730194 0.380127 0.157379
0.849121 0.382507 0.172211
0.026794 0.475952 0.142578
0.133606 0.485352 0.152527
0.256927 0.487488 0.156769
0.377136 0.490692 0.163513
0.496613 0.494080 0.171814
0.615662 0.497253 0.181732
0.734619 0.500305 0.192932
0.853577 0.503113 0.205505
0.031494 0.594574 0.185730
0.133087 0.606201 0.197968
0.259430 0.607117 0.200348
0.380432 0.610138 0.206024
0.500458 0.613403 0.213104
0.619812 0.616760 0.221649
0.738983 0.619934 0.231384
0.857971 0.622986 0.242188
0.036133 0.713135 0.228973
0.131042 0.727692 0.243988
0.261078 0.727081 0.244568
0.383453 0.729584 0.249084
0.503937 0.732788 0.255402
0.623657 0.736115 0.262939
0.743134 0.739380 0.271545
0.862213 0.742615 0.281189
0.040833 0.831757 0.272095
0.125275 0.850769 0.291626
0.261963 0.847351 0.289154
0.385956 0.849243 0.292725
0.507202 0.852173 0.298309
0.627350 0.855469 0.304932
0.747040 0.858765 0.312622
0.866364 0.862091 0.321381
0.000031 0.001038 0.123566
0.103821 0.009064 0.148987
0.228180 0.010803 0.152740
0.348419 0.014130 0.158630
0.467804 0.017700 0.166077
0.586700 0.021210 0.174744
0.705292 0.024658 0.184479
0.823700 0.028076 0.195404
0.010651 0.118896 0.154449
0.116028 0.128876 0.165283
0.240601 0.130371 0.169342
0.362061 0.132996 0.176086
0.482941 0.135529 0.184692
0.603821 0.137726 0.195343
0.725342 0.139160 0.208008
0.847473 0.139954 0.222504
0.018829 0.240479 0.172028
0.122711 0.251160 0.183228
0.247742 0.252594 0.186554
0.368683 0.255524 0.192627
0.489075 0.258514 0.200287
0.609100 0.261353 0.209625
0.728943 0.264099 0.220123
0.849091 0.266327 0.232391
0.026062 0.361572 0.194763
0.127411 0.373322 0.207306
0.253723 0.374298 0.209564
0.375153 0.377106 0.215088
0.495392 0.380310 0.222107
0.615082 0.383453 0.230560
0.734802 0.386353 0.240295
0.854340 0.389191 0.251282
0.032745 0.482086 0.222412
0.129761 0.495697 0.236603
0.258728 0.495575 0.237671
0.380646 0.498230 0.242584
0.501190 0.501373 0.249054
0.620972 0.504639 0.256836
0.740570 0.507782 0.265747
0.859894 0.510803 0.275818
0.038910 0.602112 0.253906
0.129944 0.618347 0.270508
0.262421 0.616669 0.269806
0.385559 0.618927 0.274109
0.506317 0.621979 0.280060
0.626312 0.625275 0.287170
0.745941 0.628510 0.295441
0.865326 0.631714 0.304626
0.044708 0.721802 0.288055
0.126740 0.741913 0.308563
0.265289 0.737671 0.305176
0.389465 0.739471 0.308716
0.510834 0.742371 0.314148
0.631195 0.745575 0.320679
0.751007 0.748871 0.328278
0.870422 0.752136 0.336792
0.050262 0.841217 0.324463
0.118896 0.867065 0.350586
0.266876 0.858856 0.343201
0.392761 0.859955 0.345703
0.514984 0.862579 0.350464
0.635620 0.865692 0.356537
0.755585 0.868958 0.363586
0.875244 0.872284 0.371399
0.000031 0.004944 0.231598
0.070038 0.023041 0.295135
0.214661 0.015961 0.290955
0.341217 0.016418 0.295135
0.462921 0.019287 0.299896
0.583191 0.022614 0.305847
0.702850 0.026093 0.312531
0.822113 0.029694 0.320129
0.008942 0.119049 0.287231
0.083221 0.142365 0.311432
0.227448 0.135620 0.305969
0.353699 0.136383 0.309662
0.476837 0.138214 0.315765
0.599152 0.140198 0.323639
0.721954 0.141510 0.333466
0.844604 0.142700 0.344421
0.018158 0.240784 0.301208
0.090088 0.265198 0.326111
0.235657 0.257935 0.319855
0.361664 0.258881 0.322754
0.484192 0.261261 0.328125
0.605621 0.263824 0.334991
0.726685 0.266418 0.342896
0.847443 0.268921 0.351959
0.026428 0.362549 0.317596
0.093384 0.389038 0.344604
0.242554 0.380310 0.336670
0.368927 0.381165 0.339233
0.491547 0.383545 0.344147
0.612701 0.386353 0.350433
0.733276 0.389313 0.357727
0.853577 0.392212 0.366089
0.034210 0.483978 0.337219
0.094208 0.513519 0.367157
0.248535 0.502563 0.356995
0.375549 0.503143 0.359070
0.498260 0.505554 0.363678
0.619354 0.508453 0.369537
0.740021 0.511475 0.376495
0.860107 0.514526 0.384369
0.041565 0.605072 0.359985
0.090332 0.639374 0.394592
0.253326 0.624695 0.380615
0.381409 0.624908 0.382233
0.504456 0.627136 0.386444
0.625854 0.630035 0.391998
0.746338 0.633148 0.398560
0.866455 0.636322 0.406067
0.048431 0.725769 0.385620
0.087189 0.764465 0.424561
0.256805 0.746948 0.407715
0.386475 0.746429 0.408508
0.510101 0.748505 0.412354
0.631744 0.751282 0.417603
0.752380 0.754395 0.423828
0.872498 0.757599 0.430969
0.055054 0.846191 0.413971
0.093719 0.884857 0.452820
0.258881 0.869293 0.437805
0.390656 0.867950 0.437653
0.515106 0.869690 0.440979
0.636993 0.872375 0.445923
0.757874 0.875366 0.451843
0.878204 0.878571 0.458527
0.000031 0.010620 0.330292
0.028473 0.040894 0.441742
0.185211 0.028778 0.431549
0.323853 0.023834 0.431671
0.453064 0.022736 0.437164
0.576385 0.024750 0.442017
0.697510 0.027771 0.447113
0.817902 0.031097 0.452911
0.006073 0.119781 0.420288
0.045166 0.158173 0.459534
0.201447 0.146271 0.448914
0.338165 0.142639 0.447449
0.465729 0.142700 0.451233
0.590576 0.143677 0.457458
0.714386 0.144867 0.465149
0.838409 0.145660 0.474670
0.016571 0.240936 0.433746
0.055481 0.279510 0.472809
0.210419 0.268250 0.462250
0.347412 0.264587 0.460144
0.474487 0.265076 0.463165
0.598053 0.266876 0.468079
0.720520 0.269073 0.474396
0.842590 0.271240 0.481842
0.025665 0.362671 0.447998
0.064331 0.401367 0.486786
0.217957 0.390717 0.476959
0.355469 0.386902 0.474365
0.482239 0.387604 0.476868
0.605835 0.389496 0.481415
0.727783 0.391998 0.487152
0.849274 0.394592 0.493927
0.034058 0.484497 0.464050
0.072784 0.523193 0.502899
0.224243 0.513458 0.493866
0.362549 0.509308 0.490723
0.489685 0.509857 0.492950
0.613281 0.511810 0.497162
0.735107 0.514496 0.502625
0.856354 0.517273 0.508972
0.042053 0.606079 0.482269
0.080750 0.644714 0.521088
0.228973 0.636414 0.513397
0.368896 0.631592 0.509521
0.496521 0.631989 0.511414
0.620148 0.634003 0.515350
0.742126 0.636597 0.520508
0.863342 0.639465 0.526642
0.049652 0.727386 0.502716
0.088379 0.766083 0.541565
0.232208 0.759613 0.535675
0.374573 0.753754 0.530670
0.502716 0.753967 0.532227
0.626648 0.755859 0.535889
0.748840 0.758423 0.540894
0.870026 0.761322 0.546722
0.056976 0.848480 0.525391
0.095703 0.887146 0.564240
0.234039 0.883118 0.560669
0.379303 0.875977 0.554413
0.508331 0.875824 0.555450
0.632721 0.877533 0.558899
0.755127 0.880005 0.563568
0.876404 0.882935 0.569244
0.000031 0.018188 0.418732
0.020996 0.044769 0.570831
0.128723 0.053497 0.582062
0.295288 0.036774 0.569275
0.431732 0.032654 0.571106
0.562592 0.030548 0.577515
0.689301 0.030426 0.584534
0.811218 0.033203 0.589111
0.002533 0.120880 0.553040
0.041412 0.159393 0.592102
0.147522 0.169128 0.602722
0.313690 0.152832 0.588806
0.448578 0.149841 0.588867
0.576996 0.149414 0.592865
0.702942 0.149780 0.598999
0.828217 0.150269 0.606934
0.014465 0.241180 0.567047
0.053284 0.279816 0.606018
0.157776 0.290222 0.617035
0.324402 0.273895 0.602112
0.458771 0.271301 0.601471
0.586304 0.271515 0.604462
0.710938 0.272858 0.609253
0.834412 0.274567 0.615326
0.024170 0.362793 0.580414
0.062927 0.401428 0.619263
0.164948 0.412964 0.631439
0.332916 0.396088 0.615509
0.467377 0.393555 0.614532
0.594666 0.393951 0.617004
0.718964 0.395538 0.621307
0.841949 0.397614 0.626801
0.033112 0.484619 0.594818
0.071899 0.523315 0.633698
0.169525 0.536682 0.647491
0.340302 0.518616 0.630280
0.475311 0.515900 0.628906
0.602600 0.516327 0.631134
0.726837 0.518036 0.635162
0.849579 0.520264 0.640320
0.041595 0.606415 0.610626
0.080292 0.645111 0.649414
0.172546 0.660797 0.665588
0.346954 0.641205 0.646759
0.482452 0.638306 0.644989
0.610046 0.638641 0.647003
0.734314 0.640350 0.650757
0.857056 0.642670 0.655670
0.049683 0.728088 0.628082
0.088409 0.766754 0.666901
0.171783 0.786224 0.686798
0.352875 0.763855 0.665131
0.489227 0.760529 0.662872
0.617004 0.760864 0.664673
0.741455 0.762482 0.668213
0.864136 0.764862 0.672882
0.057526 0.849548 0.647278
0.096252 0.888245 0.686157
0.166595 0.913300 0.711548
0.357849 0.886505 0.685455
0.495239 0.882813 0.682770
0.623474 0.882904 0.684204
0.748199 0.884521 0.687561
0.871002 0.886810 0.692047
0.000031 0.028534 0.492218
0.011169 0.050171 0.697632
0.050690 0.088257 0.737366
0.250885 0.057129 0.710144
0.402252 0.046539 0.706085
0.538879 0.042023 0.709625
0.671051 0.039063 0.716949
0.802002 0.036194 0.727203
0.000031 0.123047 0.677277
0.036896 0.161163 0.723938
0.076050 0.199585 0.763306
0.274689 0.169464 0.734863
0.423889 0.160400 0.728546
0.558136 0.157562 0.729645
0.687439 0.156555 0.734070
0.814850 0.156189 0.740631
0.011810 0.241760 0.700317
0.050629 0.280396 0.739227
0.089508 0.318909 0.778320
0.287262 0.289337 0.749817
0.436096 0.280548 0.742737
0.569702 0.278229 0.743011
0.697693 0.278168 0.746063
0.823273 0.279022 0.750854
0.022308 0.362976 0.713562
0.061035 0.401642 0.752380
0.099915 0.440216 0.791473
0.296570 0.411072 0.763214
0.445770 0.402252 0.755798
0.578888 0.400208 0.755524
0.706604 0.400360 0.758057
0.831604 0.401672 0.762268
0.031738 0.484711 0.727112
0.070496 0.523407 0.765961
0.109253 0.562012 0.804932
0.304352 0.533569 0.777313
0.454010 0.524567 0.769379
0.587219 0.522522 0.768829
0.714905 0.522827 0.771149
0.839752 0.524200 0.774994
0.040619 0.606567 0.741608
0.079346 0.645203 0.780426
0.118134 0.683838 0.819427
0.310852 0.656464 0.792633
0.461578 0.647003 0.784180
0.595062 0.644867 0.783386
0.722778 0.645172 0.785431
0.847626 0.646637 0.789063
0.049133 0.728363 0.757294
0.087799 0.767029 0.796051
0.126556 0.805664 0.835022
0.316406 0.779510 0.809509
0.468414 0.769531 0.800385
0.602417 0.767212 0.799286
0.730225 0.767487 0.801117
0.855103 0.768951 0.804596
0.057312 0.850006 0.774292
0.096039 0.888733 0.813110
0.134766 0.927338 0.852051
0.320679 0.902893 0.828094
0.474609 0.892090 0.818115
0.609192 0.889526 0.816711
0.737274 0.889740 0.818420
0.862305 0.891144 0.821594
0.000031 0.039032 0.564850
0.000031 0.056732 0.822052
0.039551 0.094574 0.862793
0.176483 0.090698 0.862061
0.361237 0.066071 0.842316
0.506866 0.057831 0.841156
0.643921 0.052826 0.846252
0.777802 0.048737 0.854858
0.000031 0.126740 0.786835
0.031372 0.163635 0.854889
0.070404 0.202118 0.894104
0.206268 0.198883 0.892792
0.389801 0.175140 0.871582
0.533325 0.168365 0.868225
0.667328 0.165466 0.870148
0.797302 0.164154 0.874847
0.008453 0.242737 0.833099
0.047333 0.281372 0.872070
0.086182 0.319916 0.911072
0.220642 0.317413 0.909790
0.404266 0.293762 0.887695
0.547150 0.287506 0.883575
0.680115 0.285370 0.884338
0.808563 0.285065 0.887573
0.020020 0.363373 0.846863
0.058777 0.402008 0.885681
0.097626 0.440582 0.924744
0.229919 0.439056 0.923981
0.414551 0.415070 0.901184
0.557343 0.408905 0.896576
0.690094 0.407013 0.896942
0.818054 0.407043 0.899506
0.029999 0.484863 0.860107
0.068756 0.523529 0.898926
0.107513 0.562164 0.937897
0.236816 0.561920 0.938293
0.423309 0.537170 0.914581
0.566315 0.530945 0.909668
0.698883 0.529205 0.909668
0.826782 0.529327 0.911987
0.039276 0.606628 0.873840
0.077972 0.645325 0.912598
0.116760 0.683960 0.951599
0.242310 0.685333 0.953552
0.431000 0.659668 0.928711
0.574585 0.653229 0.923492
0.707153 0.651459 0.923248
0.834991 0.651703 0.925385
0.048096 0.728455 0.888397
0.086792 0.767151 0.927185
0.125580 0.805786 0.966125
0.245972 0.809418 0.970306
0.438141 0.782196 0.943848
0.582123 0.775665 0.938354
0.714905 0.773834 0.937897
0.842804 0.774048 0.939789
0.056580 0.850250 0.903931
0.095337 0.888947 0.942749
0.134064 0.927612 0.981659
0.246674 0.934540 0.989105
0.444397 0.904999 0.960297
0.589081 0.898132 0.954376
0.722229 0.896210 0.953705
0.850281 0.896362 0.955444
0.000031 0.049805 0.636139
0.000031 0.068878 0.885803
0.028137 0.101105 0.987915
0.073151 0.141632 1.000000
0.306366 0.091431 0.984985
0.468353 0.076385 0.975739
0.611359 0.069153 0.976379
0.748505 0.063965 0.982239
0.000031 0.131531 0.889893
0.025055 0.166626 0.985077
0.070313 0.206512 1.000000
0.119263 0.247223 1.000000
0.340118 0.200531 1.000000
0.499176 0.185242 1.000000
0.639130 0.179657 1.000000
0.769958 0.178802 1.000000
0.004700 0.244080 0.965668
0.045197 0.282715 1.000000
0.097534 0.321655 1.000000
0.150116 0.360565 1.000000
0.360382 0.319244 1.000000
0.514160 0.306671 1.000000
0.649811 0.303314 1.000000
0.776642 0.304382 1.000000
0.017273 0.363953 0.980042
0.065063 0.401581 1.000000
0.122528 0.437988 1.000000
0.180023 0.474335 1.000000
0.379364 0.438660 1.000000
0.528290 0.428467 1.000000
0.660095 0.427124 1.000000
0.783203 0.430084 1.000000
0.027924 0.485138 0.993347
0.087280 0.519379 1.000000
0.150787 0.552673 1.000000
0.214539 0.585815 1.000000
0.401581 0.556396 1.000000
0.545349 0.548889 1.000000
0.673065 0.549591 1.000000
0.791840 0.554779 1.000000
0.043304 0.605133 1.000000
0.114594 0.634460 1.000000
0.186035 0.663788 1.000000
0.257538 0.693024 1.000000
0.430695 0.670593 1.000000
0.568542 0.666138 1.000000
0.691467 0.669220 1.000000
0.804993 0.677124 1.000000
0.069366 0.720917 1.000000
0.150635 0.745209 1.000000
0.231934 0.769409 1.000000
0.313446 0.793671 1.000000
0.471252 0.778961 1.000000
0.602600 0.777832 1.000000
0.719940 0.783783 1.000000
0.827026 0.794952 1.000000
0.105957 0.831329 1.000000
0.200165 0.849060 1.000000
0.294525 0.866669 1.000000
0.388885 0.884277 1.000000
0.531403 0.877472 1.000000
0.655975 0.879700 1.000000
0.768250 0.888245 1.000000
0.868195 0.903046 1.000000
