Demon Slayer/OpenGL_Framework/OpenGL_Framework/Assets/LUTs/warm.CUBE
#Created by: Adobe Photoshop Export Color Lookup Plugin
TITLE "Warm"
#LUT size
LUT_3D_SIZE 5
#data domain
#LUT data points
DOMAIN_MIN 0.000000 0.000000 0.000000
DOMAIN_MAX 0.903226 0.903226 0.903226
0.000000 0.000000 0.000000
0.194550 0.013397 0.013397
0.395355 0.024109 0.024109
0.596130 0.034821 0.034821
0.796906 0.045563 0.045563
0.076782 0.182556 0.022614
0.247070 0.205475 0.051086
0.453217 0.210938 0.075317
0.678894 0.203888 0.113556
0.932037 0.177948 0.177948
0.168976 0.360535 0.027557
0.303986 0.399078 0.068451
0.489777 0.415009 0.092041
0.692200 0.422668 0.114685
0.904144 0.424713 0.141632
0.261505 0.538422 0.032471
0.375732 0.585999 0.081482
0.542603 0.610565 0.110504
0.732727 0.624542 0.133087
0.933472 0.633118 0.155304
0.353851 0.716339 0.037415
0.455780 0.769287 0.091370
0.605743 0.801270 0.126434
0.783630 0.820923 0.151855
0.975525 0.834015 0.174103
0.049408 0.000031 0.091064
0.219238 0.020294 0.134735
0.413452 0.034180 0.146515
0.612396 0.046295 0.154846
0.812805 0.058167 0.160645
0.121063 0.181763 0.131592
0.273041 0.212677 0.167267
0.474030 0.220612 0.192535
0.699036 0.214233 0.228943
0.948883 0.191528 0.284973
0.201324 0.369843 0.115295
0.330505 0.411011 0.158051
0.512421 0.429047 0.180817
0.713623 0.438110 0.199493
0.925781 0.441559 0.218323
0.296387 0.558838 0.053619
0.408325 0.607422 0.103638
0.572510 0.633087 0.133789
0.761047 0.647705 0.157013
0.960938 0.656677 0.179657
0.385712 0.738098 0.059692
0.486481 0.791504 0.114044
0.634888 0.824188 0.149841
0.811646 0.844330 0.175781
1.000000 0.857239 0.208771
0.104309 0.000031 0.167267
0.261047 0.016357 0.267792
0.439575 0.036774 0.287292
0.632019 0.051331 0.300262
0.828888 0.064087 0.310455
0.190155 0.164001 0.264435
0.318359 0.204987 0.310944
0.505951 0.218140 0.344238
0.728363 0.211517 0.389221
0.964386 0.196930 0.439819
0.248962 0.359161 0.268463
0.365845 0.405487 0.316956
0.537109 0.427795 0.346130
0.732605 0.438660 0.370605
0.941345 0.442413 0.397095
0.325653 0.547668 0.259460
0.431976 0.598755 0.311493
0.589233 0.627533 0.343872
0.773529 0.644287 0.367371
0.971222 0.654633 0.388458
0.411987 0.734833 0.231476
0.510193 0.789368 0.286652
0.654053 0.824219 0.323242
0.827667 0.846100 0.348450
1.000000 0.860138 0.418640
0.158569 0.000031 0.244843
0.317566 0.006134 0.394348
0.477478 0.034424 0.422150
0.660095 0.053131 0.439850
0.851471 0.068085 0.453339
0.272827 0.139313 0.397247
0.384888 0.187042 0.451538
0.557648 0.205902 0.494873
0.783600 0.194122 0.557739
0.986786 0.200775 0.583954
0.314240 0.343079 0.402588
0.419861 0.394196 0.456055
0.577209 0.422363 0.491791
0.764313 0.436615 0.520844
0.968445 0.441956 0.551147
0.377289 0.536346 0.405243
0.476990 0.590149 0.460327
0.624146 0.623230 0.497498
0.801147 0.642944 0.524933
0.994141 0.655090 0.549377
0.451935 0.725403 0.398712
0.546295 0.781616 0.455719
0.683350 0.819244 0.495819
0.851013 0.843445 0.524841
1.000000 0.863983 0.624115
0.212738 0.000031 0.322968
0.372742 0.000031 0.502625
0.525299 0.027893 0.552521
0.696259 0.051514 0.575500
0.880463 0.069489 0.592438
0.367859 0.106750 0.538513
0.471222 0.157684 0.599182
0.637207 0.177063 0.658356
0.832001 0.183899 0.706482
1.000000 0.211365 0.716980
0.388977 0.322723 0.533661
0.486267 0.377411 0.590881
0.630219 0.411224 0.632813
0.807404 0.429565 0.667175
1.000000 0.440186 0.700684
0.440613 0.521057 0.540283
0.534515 0.577332 0.597992
0.670990 0.614960 0.639923
0.839050 0.638428 0.671631
1.000000 0.664886 0.706543
0.505463 0.713531 0.542084
0.595947 0.771423 0.600830
0.725189 0.812317 0.644470
0.885437 0.839630 0.677032
1.000000 0.876282 0.783905
