Demon Slayer/OpenGL_Framework/OpenGL_Framework/Assets/LUTs/warm.CUBE
#Created by: Adobe Photoshop Export Color Lookup Plugin
TITLE "Warm"
#LUT size
LUT_3D_SIZE 32
#data domain
DOMAIN_MIN 0.0 0.0 0.0
DOMAIN_MAX 1.0 1.0 1.0
#LUT data points
0.000000 0.000000 0.000000
0.024414 0.003357 0.003357
0.051666 0.005493 0.005493
0.079773 0.007263 0.007263
0.108459 0.008820 0.008820
0.136932 0.010406 0.010406
0.165924 0.011841 0.011841
0.194550 0.013397 0.013397
0.223328 0.014893 0.014893
0.252136 0.016388 0.016388
0.280762 0.017914 0.017914
0.309357 0.019470 0.019470
0.338104 0.020996 0.020996
0.366730 0.022552 0.022552
0.395355 0.024109 0.024109
0.424042 0.025635 0.025635
0.452789 0.027161 0.027161
0.481445 0.028687 0.028687
0.510132 0.030212 0.030212
0.538818 0.031769 0.031769
0.567474 0.033295 0.033295
0.596130 0.034821 0.034821
0.624817 0.036346 0.036346
0.653473 0.037903 0.037903
0.682159 0.039429 0.039429
0.710876 0.040955 0.040955
0.739594 0.042511 0.042511
0.768250 0.044037 0.044037
0.796906 0.045563 0.045563
0.825592 0.047089 0.047089
0.854248 0.048645 0.048645
0.882904 0.050171 0.050171
0.011322 0.025055 0.007843
0.036346 0.028015 0.011810
0.063171 0.030151 0.014893
0.093079 0.030792 0.017944
0.122314 0.031769 0.020935
0.152527 0.032166 0.024384
0.183350 0.032196 0.028107
0.214264 0.032135 0.032135
0.242706 0.033752 0.033752
0.271576 0.035217 0.035217
0.300110 0.036835 0.036835
0.328766 0.038391 0.038391
0.357391 0.039948 0.039948
0.386108 0.041443 0.041443
0.414734 0.042999 0.042999
0.443359 0.044556 0.044556
0.472046 0.046051 0.046051
0.500671 0.047607 0.047607
0.529388 0.049164 0.049164
0.558044 0.050720 0.050720
0.586700 0.052277 0.052277
0.615387 0.053772 0.053772
0.644012 0.055328 0.055328
0.672699 0.056885 0.056885
0.701355 0.058411 0.058411
0.729980 0.059937 0.059937
0.758728 0.061462 0.061462
0.787384 0.062988 0.062988
0.816071 0.064545 0.064545
0.844696 0.066071 0.066071
0.873383 0.067627 0.067627
0.902069 0.069183 0.069183
0.021210 0.051025 0.014404
0.047150 0.053528 0.018311
0.073700 0.055817 0.021576
0.102142 0.057220 0.024689
0.130981 0.058350 0.027802
0.160980 0.058868 0.031311
0.192169 0.058624 0.035461
0.223053 0.058533 0.039673
0.254059 0.058350 0.044037
0.286530 0.057220 0.049408
0.318726 0.056274 0.054749
0.348206 0.057190 0.057190
0.376831 0.058746 0.058746
0.405365 0.060364 0.060364
0.433990 0.061951 0.061951
0.462646 0.063477 0.063477
0.491333 0.065002 0.065002
0.520020 0.066528 0.066528
0.548645 0.068085 0.068085
0.577301 0.069611 0.069611
0.605927 0.071198 0.071198
0.634552 0.072754 0.072754
0.663239 0.074310 0.074310
0.691925 0.075836 0.075836
0.720581 0.077362 0.077362
0.749176 0.078918 0.078918
0.777893 0.080444 0.080444
0.806549 0.082001 0.082001
0.835175 0.083527 0.083527
0.863861 0.085052 0.085052
0.892548 0.086578 0.086578
0.921204 0.088135 0.088135
0.029785 0.078461 0.017029
0.054535 0.081543 0.020844
0.080902 0.083862 0.024475
0.107727 0.086090 0.027405
0.136505 0.087250 0.030731
0.165771 0.088135 0.034027
0.195740 0.088623 0.037567
0.226227 0.088837 0.041565
0.257446 0.088501 0.046173
0.289124 0.087860 0.051025
0.321808 0.086578 0.056885
0.354828 0.085022 0.062958
0.388214 0.083252 0.069427
0.422852 0.080627 0.076996
0.453552 0.080719 0.080719
0.482117 0.082306 0.082306
0.510803 0.083862 0.083862
0.539398 0.085449 0.085449
0.568024 0.087006 0.087006
0.596649 0.088562 0.088562
0.625305 0.090088 0.090088
0.653870 0.091644 0.091644
0.682465 0.093231 0.093231
0.711151 0.094757 0.094757
0.739807 0.096283 0.096283
0.768463 0.097809 0.097809
0.797150 0.099396 0.099396
0.825806 0.100952 0.100952
0.854462 0.102478 0.102478
0.883118 0.104004 0.104004
0.911743 0.105560 0.105560
0.940399 0.107117 0.107117
0.039368 0.105408 0.019379
0.063934 0.108612 0.023132
0.089203 0.111481 0.026764
0.115417 0.113892 0.030396
0.143188 0.115601 0.033478
0.171143 0.117188 0.036621
0.200317 0.118164 0.039886
0.229919 0.118866 0.043274
0.260376 0.119049 0.047119
0.290863 0.119202 0.051056
0.321808 0.119110 0.055450
0.354034 0.118103 0.060822
0.386444 0.116974 0.066437
0.420105 0.114990 0.073303
0.454712 0.112366 0.080994
0.489624 0.109497 0.089020
0.525787 0.105804 0.098114
0.558960 0.104218 0.104218
0.587463 0.105865 0.105865
0.616089 0.107422 0.107422
0.644714 0.108948 0.108948
0.673340 0.110535 0.110535
0.701904 0.112091 0.112091
0.730499 0.113647 0.113647
0.759186 0.115173 0.115173
0.787811 0.116760 0.116760
0.816437 0.118286 0.118286
0.845093 0.119843 0.119843
0.873718 0.121399 0.121399
0.902374 0.122925 0.122925
0.931061 0.124512 0.124512
0.959717 0.126038 0.126038
0.049896 0.131989 0.021057
0.074921 0.134979 0.024689
0.097687 0.138916 0.029266
0.123047 0.141815 0.032928
0.149933 0.143921 0.036133
0.177612 0.145660 0.039276
0.206085 0.147034 0.042419
0.234924 0.148163 0.045624
0.264343 0.148926 0.049042
0.294159 0.149506 0.052643
0.324463 0.149811 0.056396
0.355194 0.149780 0.060547
0.386322 0.149536 0.065002
0.418335 0.148682 0.070190
0.450653 0.147675 0.075714
0.483551 0.146210 0.081818
0.517975 0.143707 0.089325
0.552917 0.140839 0.097443
0.590088 0.136414 0.107635
0.627899 0.131592 0.118408
0.664246 0.127777 0.127777
0.692780 0.129333 0.129333
0.721436 0.130951 0.130951
0.750031 0.132477 0.132477
0.778656 0.134064 0.134064
0.807220 0.135620 0.135620
0.835815 0.137177 0.137177
0.864441 0.138733 0.138733
0.893066 0.140289 0.140289
0.921753 0.141846 0.141846
0.950348 0.143372 0.143372
0.978973 0.144928 0.144928
0.062897 0.157440 0.022003
0.085510 0.161530 0.026489
0.108215 0.165497 0.031219
0.131958 0.169098 0.035156
0.157440 0.171875 0.038696
0.184631 0.173798 0.042023
0.212463 0.175476 0.045166
0.240753 0.176941 0.048309
0.269348 0.178253 0.051453
0.298828 0.179016 0.054810
0.328552 0.179657 0.058350
0.358551 0.180084 0.061981
0.388885 0.180359 0.065857
0.419434 0.180450 0.069946
0.450653 0.180145 0.074493
0.482422 0.179443 0.079498
0.514771 0.178406 0.084961
0.547729 0.176910 0.091034
0.581238 0.175049 0.097748
0.615631 0.172546 0.105255
0.651398 0.169098 0.114044
0.689209 0.164246 0.124939
0.729034 0.158020 0.137787
0.769562 0.151276 0.151276
0.798126 0.152863 0.152863
0.826721 0.154449 0.154449
0.855347 0.156036 0.156036
0.883911 0.157593 0.157593
0.912537 0.159180 0.159180
0.941162 0.160706 0.160706
0.969757 0.162262 0.162262
0.998383 0.163849 0.163849
0.076782 0.182556 0.022614
0.097504 0.187439 0.027802
0.118011 0.192444 0.033112
0.141022 0.196320 0.037506
0.165649 0.199493 0.041290
0.191895 0.201904 0.044678
0.219055 0.203918 0.047852
0.247070 0.205475 0.051086
0.275391 0.206879 0.054138
0.303833 0.208252 0.057251
0.333038 0.209167 0.060547
0.362610 0.209961 0.063965
0.392792 0.210327 0.067657
0.422729 0.210785 0.071320
0.453217 0.210938 0.075317
0.484161 0.210815 0.079620
0.515289 0.210541 0.084045
0.547119 0.209808 0.089111
0.579010 0.209015 0.094269
0.611572 0.207855 0.100037
0.644989 0.206055 0.106506
0.678894 0.203888 0.113556
0.713928 0.200989 0.121674
0.749786 0.197449 0.130676
0.788300 0.192139 0.142181
0.829346 0.185028 0.156250
0.871643 0.177032 0.171631
0.903473 0.176392 0.176392
0.932037 0.177948 0.177948
0.960602 0.179535 0.179535
0.989227 0.181122 0.181122
1.000000 0.190399 0.190399
0.089844 0.208038 0.023285
0.109222 0.213501 0.029022
0.128693 0.218933 0.034729
0.150818 0.223236 0.039490
0.174530 0.226807 0.043579
0.200256 0.229462 0.047272
0.226746 0.231750 0.050598
0.253876 0.233765 0.053802
0.281708 0.235443 0.056854
0.309937 0.236877 0.059998
0.338684 0.238068 0.063202
0.367737 0.239075 0.066437
0.397064 0.239960 0.069733
0.426758 0.240631 0.073212
0.456696 0.241119 0.076813
0.487091 0.241394 0.080750
0.517761 0.241425 0.084808
0.548645 0.241333 0.089111
0.579712 0.241089 0.093567
0.611450 0.240417 0.098511
0.643402 0.239594 0.103668
0.675812 0.238495 0.109314
0.708862 0.236938 0.115479
0.742401 0.235077 0.122192
0.776703 0.232666 0.129608
0.812042 0.229492 0.138000
0.848572 0.225555 0.147614
0.887115 0.220184 0.159180
0.928894 0.212585 0.173981
0.973114 0.203247 0.191254
1.000000 0.203705 0.203705
1.000000 0.217560 0.217560
0.103119 0.233429 0.023956
0.121368 0.239380 0.030151
0.139893 0.245209 0.036224
0.160980 0.249939 0.041321
0.184174 0.253754 0.045776
0.208588 0.257019 0.049591
0.234650 0.259491 0.053101
0.261292 0.261780 0.056458
0.288605 0.263672 0.059570
0.316376 0.265381 0.062744
0.344666 0.266785 0.065887
0.373352 0.268036 0.069061
0.402222 0.269135 0.072205
0.431519 0.270050 0.075500
0.461029 0.270782 0.078918
0.490936 0.271332 0.082520
0.521149 0.271698 0.086273
0.551361 0.272034 0.090179
0.582214 0.271973 0.094330
0.613098 0.271851 0.098602
0.644135 0.271637 0.103058
0.675812 0.271027 0.107941
0.707794 0.270203 0.113129
0.740082 0.269135 0.118652
0.772797 0.267792 0.124542
0.806213 0.265991 0.131042
0.840027 0.263916 0.138031
0.874634 0.261322 0.145752
0.910370 0.257904 0.154510
0.947174 0.253723 0.164398
0.985748 0.248352 0.176025
1.000000 0.252258 0.204285
0.116211 0.258911 0.024719
0.133453 0.265289 0.031311
0.151306 0.271454 0.037689
0.171783 0.276398 0.043152
0.194183 0.280548 0.047760
0.218048 0.284027 0.051880
0.242981 0.287048 0.055603
0.269257 0.289459 0.059021
0.295837 0.291748 0.062286
0.323151 0.293640 0.065460
0.351044 0.295319 0.068542
0.379303 0.296753 0.071747
0.407898 0.298065 0.074890
0.436920 0.299103 0.078125
0.466064 0.300049 0.081390
0.495453 0.300873 0.084717
0.525269 0.301483 0.088257
0.555145 0.302002 0.091888
0.585236 0.302399 0.095581
0.615845 0.302551 0.099640
0.646667 0.302490 0.103821
0.677582 0.302368 0.108154
0.708710 0.302063 0.112610
0.740387 0.301483 0.117523
0.772095 0.300812 0.122559
0.804382 0.299744 0.128021
0.836945 0.298523 0.133789
0.870056 0.296906 0.140015
0.903625 0.294983 0.146729
0.937653 0.292755 0.153900
0.972717 0.289795 0.162018
1.000000 0.289703 0.176514
0.129578 0.284210 0.025391
0.145874 0.291016 0.032227
0.163147 0.297394 0.038940
0.182678 0.302856 0.044708
0.203979 0.307465 0.049683
0.227173 0.311249 0.054047
0.251923 0.314331 0.057953
0.277161 0.317261 0.061554
0.303680 0.319550 0.064911
0.330536 0.321686 0.068207
0.357971 0.323517 0.071381
0.385681 0.325256 0.074432
0.414032 0.326630 0.077576
0.442596 0.327942 0.080719
0.471405 0.329071 0.083893
0.500610 0.330078 0.087219
0.530090 0.330872 0.090576
0.559357 0.331757 0.093933
0.589355 0.332245 0.097534
0.619507 0.332611 0.101257
0.649658 0.332977 0.105042
0.680115 0.333130 0.109039
0.710999 0.333038 0.113220
0.742004 0.332886 0.117615
0.773224 0.332581 0.122192
0.804810 0.332001 0.127014
0.836578 0.331299 0.132080
0.868713 0.330383 0.137421
0.901123 0.329224 0.143005
0.934021 0.327759 0.149078
0.967468 0.325958 0.155640
1.000000 0.324402 0.163391
0.142548 0.309753 0.026123
0.158417 0.316742 0.033295
0.175232 0.323334 0.040100
0.193848 0.329102 0.046204
0.214478 0.334045 0.051483
0.236725 0.338257 0.056061
0.260834 0.341614 0.060181
0.285767 0.344696 0.063995
0.311584 0.347321 0.067474
0.338135 0.349579 0.070801
0.365173 0.351624 0.074036
0.392670 0.353455 0.077179
0.420380 0.355194 0.080322
0.448730 0.356598 0.083466
0.477081 0.357971 0.086517
0.505951 0.359100 0.089722
0.535126 0.360107 0.093018
0.564331 0.361023 0.096313
0.593903 0.361786 0.099762
0.623566 0.362427 0.103210
0.653503 0.362946 0.106812
0.683594 0.363342 0.110535
0.713989 0.363556 0.114441
0.744537 0.363678 0.118500
0.775269 0.363647 0.122650
0.806366 0.363434 0.127045
0.837646 0.363068 0.131653
0.869141 0.362579 0.136444
0.900940 0.361908 0.141479
0.933105 0.360931 0.146820
0.965454 0.359833 0.152374
0.998016 0.358612 0.158203
0.155914 0.335083 0.026825
0.171295 0.342316 0.034210
0.187164 0.349274 0.041321
0.205292 0.355316 0.047607
0.225220 0.360535 0.053131
0.247070 0.364929 0.057983
0.270477 0.368591 0.062317
0.294800 0.371918 0.066284
0.319855 0.374847 0.069946
0.346008 0.377319 0.073395
0.372498 0.379639 0.076691
0.399658 0.381683 0.079926
0.427277 0.383453 0.083099
0.455170 0.385071 0.086182
0.483368 0.386566 0.089294
0.511902 0.387848 0.092438
0.540619 0.389069 0.095642
0.569672 0.390076 0.098846
0.598816 0.391052 0.102112
0.628357 0.391846 0.105560
0.657837 0.392609 0.108948
0.687744 0.393127 0.112518
0.717712 0.393616 0.116180
0.747986 0.393921 0.119995
0.778381 0.394135 0.123901
0.808838 0.394287 0.127899
0.839905 0.394104 0.132233
0.870880 0.393890 0.136597
0.902039 0.393616 0.141113
0.933533 0.393127 0.145905
0.965363 0.392395 0.150970
0.997314 0.391602 0.156158
0.168976 0.360535 0.027557
0.183838 0.367950 0.035095
0.199554 0.375031 0.042358
0.217102 0.381287 0.048859
0.236420 0.386841 0.054688
0.257629 0.391510 0.059784
0.280273 0.395538 0.064331
0.303986 0.399078 0.068451
0.328735 0.402191 0.072327
0.354248 0.404938 0.075836
0.380432 0.407379 0.079285
0.407196 0.409576 0.082581
0.434479 0.411499 0.085785
0.461884 0.413391 0.088928
0.489777 0.415009 0.092041
0.518066 0.416504 0.095215
0.546478 0.417847 0.098267
0.575287 0.419037 0.101471
0.604156 0.420135 0.104675
0.633270 0.421112 0.107910
0.662689 0.421936 0.111267
0.692200 0.422668 0.114685
0.721985 0.423309 0.118225
0.751892 0.423859 0.121826
0.782074 0.424225 0.125580
0.812225 0.424591 0.129364
0.842712 0.424744 0.133331
0.873352 0.424805 0.137421
0.904144 0.424713 0.141632
0.935303 0.424469 0.146088
0.966553 0.424133 0.150665
0.998047 0.423615 0.155457
0.182159 0.385956 0.028259
0.196747 0.393524 0.035919
0.211609 0.400940 0.043488
0.228668 0.407440 0.050201
0.247650 0.413055 0.056122
0.268250 0.417999 0.061432
0.290314 0.422302 0.066223
0.313660 0.426025 0.070587
0.337738 0.429443 0.074585
0.362671 0.432495 0.078339
0.388611 0.435059 0.081848
0.414948 0.437408 0.085175
0.441833 0.439514 0.088440
0.469086 0.441467 0.091614
0.496643 0.443268 0.094757
0.524628 0.444855 0.097900
0.552704 0.446442 0.101013
0.581116 0.447815 0.104156
0.609955 0.448975 0.107330
0.638794 0.450104 0.110504
0.667877 0.451111 0.113770
0.697144 0.452026 0.117096
0.726654 0.452789 0.120483
0.756256 0.453461 0.123901
0.786041 0.454041 0.127441
0.816101 0.454498 0.131134
0.846222 0.454895 0.134888
0.876556 0.455170 0.138763
0.907074 0.455322 0.142761
0.937836 0.455292 0.146912
0.968658 0.455200 0.151154
0.999756 0.454987 0.155609
0.195343 0.411438 0.028992
0.209717 0.419067 0.036774
0.224304 0.426605 0.044434
0.240570 0.433411 0.051392
0.259033 0.439301 0.057556
0.279114 0.444519 0.063110
0.300568 0.449036 0.068115
0.323303 0.453064 0.072601
0.347046 0.456604 0.076782
0.371735 0.459717 0.080627
0.396973 0.462585 0.084259
0.423065 0.465088 0.087738
0.449493 0.467407 0.091064
0.476410 0.469543 0.094299
0.503662 0.471466 0.097473
0.531342 0.473206 0.100616
0.559265 0.474884 0.103790
0.587311 0.476440 0.106873
0.615906 0.477722 0.110016
0.644592 0.478943 0.113190
0.673370 0.480133 0.116364
0.702362 0.481171 0.119598
0.731628 0.482086 0.122894
0.761078 0.482849 0.126251
0.790588 0.483673 0.129700
0.820343 0.484253 0.133209
0.850281 0.484772 0.136810
0.880341 0.485199 0.140503
0.910461 0.485596 0.144257
0.940918 0.485779 0.148193
0.971436 0.485901 0.152191
1.000000 0.486542 0.158813
0.208588 0.436829 0.029694
0.222473 0.444702 0.037628
0.236633 0.452423 0.045502
0.252991 0.459198 0.052490
0.270721 0.465363 0.058868
0.290222 0.470795 0.064636
0.311188 0.475555 0.069794
0.333496 0.479736 0.074524
0.356628 0.483551 0.078857
0.380920 0.486908 0.082916
0.405731 0.489990 0.086670
0.431305 0.492706 0.090240
0.457458 0.495148 0.093658
0.484070 0.497437 0.096985
0.511047 0.499512 0.100189
0.538422 0.501404 0.103394
0.566040 0.503143 0.106476
0.593872 0.504883 0.109650
0.622162 0.506287 0.112762
0.650574 0.507690 0.115875
0.679199 0.508942 0.119049
0.707947 0.510101 0.122223
0.737000 0.511139 0.125458
0.766113 0.512115 0.128693
0.795441 0.512970 0.132019
0.825012 0.513702 0.135437
0.854645 0.514404 0.138916
0.884430 0.514984 0.142456
0.914490 0.515472 0.146149
0.944611 0.515839 0.149872
0.974854 0.516144 0.153687
1.000000 0.517853 0.164093
0.221680 0.462250 0.030365
0.235474 0.470215 0.038452
0.249176 0.478119 0.046417
0.265289 0.484985 0.053558
0.282593 0.491394 0.060181
0.301605 0.497009 0.066101
0.322052 0.502014 0.071472
0.343689 0.506470 0.076355
0.366364 0.510529 0.080902
0.390045 0.514099 0.085083
0.414673 0.517242 0.088959
0.439880 0.520111 0.092621
0.465607 0.522766 0.096130
0.491974 0.525177 0.099548
0.518646 0.527435 0.102875
0.545746 0.529449 0.106110
0.573090 0.531342 0.109222
0.600647 0.533142 0.112366
0.628601 0.534760 0.115509
0.656860 0.536194 0.118591
0.685242 0.537567 0.121735
0.713806 0.538879 0.124908
0.742615 0.540039 0.128082
0.771576 0.541138 0.131287
0.800659 0.542114 0.134521
0.829926 0.543030 0.137848
0.859406 0.543823 0.141235
0.888947 0.544525 0.144653
0.918762 0.545105 0.148193
0.948578 0.545685 0.151733
0.978668 0.546112 0.155457
1.000000 0.548798 0.170990
0.234894 0.487701 0.031097
0.248352 0.495728 0.039246
0.262207 0.503601 0.047272
0.277527 0.510803 0.054626
0.294434 0.517365 0.061371
0.312988 0.523224 0.067535
0.332825 0.528473 0.073090
0.354156 0.533081 0.078125
0.376465 0.537262 0.082825
0.399750 0.541046 0.087128
0.423859 0.544434 0.091187
0.448669 0.547516 0.095001
0.474030 0.550323 0.098602
0.500031 0.552856 0.102081
0.526367 0.555206 0.105438
0.553131 0.557434 0.108704
0.580231 0.559479 0.111938
0.607697 0.561340 0.115112
0.635406 0.563019 0.118225
0.663330 0.564667 0.121338
0.691498 0.566132 0.124451
0.719849 0.567535 0.127594
0.748383 0.568848 0.130707
0.777161 0.570007 0.133881
0.806152 0.571075 0.137115
0.835175 0.572174 0.140381
0.864441 0.573090 0.143677
0.893799 0.573914 0.147003
0.923340 0.574677 0.150452
0.953064 0.575287 0.153931
0.982849 0.575897 0.157471
1.000000 0.579498 0.179413
0.248169 0.513062 0.031769
0.261383 0.521210 0.040039
0.274811 0.529266 0.048218
0.289825 0.536621 0.055695
0.306488 0.543274 0.062561
0.324646 0.549286 0.068848
0.344025 0.554749 0.074585
0.364899 0.559540 0.079803
0.386749 0.563934 0.084656
0.409454 0.567993 0.089172
0.433319 0.571503 0.093353
0.457733 0.574738 0.097260
0.482605 0.577789 0.101013
0.508423 0.580414 0.104584
0.534363 0.582977 0.108032
0.560760 0.585297 0.111328
0.587677 0.587402 0.114563
0.614838 0.589447 0.117798
0.642426 0.591248 0.120972
0.670105 0.592987 0.124084
0.698029 0.594574 0.127197
0.726196 0.596100 0.130341
0.754486 0.597504 0.133423
0.783112 0.598785 0.136597
0.811829 0.599976 0.139771
0.840668 0.601105 0.142944
0.869751 0.602142 0.146210
0.898926 0.603088 0.149475
0.928253 0.603943 0.152802
0.957794 0.604706 0.156219
0.987396 0.605438 0.159668
1.000000 0.609894 0.189667
0.261505 0.538422 0.032471
0.274231 0.546814 0.040894
0.287598 0.554871 0.049072
0.302368 0.562347 0.056702
0.318695 0.569153 0.063690
0.336395 0.575348 0.070129
0.355438 0.580933 0.076050
0.375732 0.585999 0.081482
0.397217 0.590576 0.086456
0.419586 0.594696 0.091095
0.442932 0.598450 0.095398
0.466858 0.601929 0.099487
0.491577 0.605011 0.103302
0.516876 0.607910 0.106995
0.542603 0.610565 0.110504
0.568817 0.613007 0.113922
0.595459 0.615234 0.117218
0.622253 0.617401 0.120453
0.649506 0.619354 0.123657
0.677032 0.621155 0.126801
0.704681 0.622925 0.129944
0.732727 0.624542 0.133087
0.760925 0.626007 0.136200
0.789307 0.627380 0.139313
0.817749 0.628723 0.142456
0.846436 0.629944 0.145599
0.875305 0.631104 0.148834
0.904388 0.632111 0.152069
0.933472 0.633118 0.155304
0.962708 0.634003 0.158600
0.992188 0.634796 0.162018
1.000000 0.639893 0.201538
0.274597 0.563873 0.033173
0.287231 0.572296 0.041656
0.300415 0.580414 0.049927
0.314880 0.588013 0.057648
0.330902 0.594971 0.064789
0.348236 0.601349 0.071381
0.366974 0.607117 0.077454
0.386841 0.612366 0.083038
0.407776 0.617157 0.088196
0.429810 0.621429 0.092987
0.452759 0.625336 0.097412
0.476318 0.628967 0.101624
0.500732 0.632233 0.105560
0.525604 0.635254 0.109344
0.551056 0.638031 0.112946
0.576996 0.640625 0.116455
0.603302 0.643066 0.119843
0.629944 0.645294 0.123138
0.656921 0.647369 0.126373
0.684174 0.649323 0.129547
0.711731 0.651123 0.132690
0.739471 0.652832 0.135834
0.767456 0.654419 0.138947
0.795563 0.655914 0.142029
0.823914 0.657349 0.145172
0.852417 0.658691 0.148315
0.881012 0.659943 0.151459
0.909912 0.661072 0.154663
0.938873 0.662140 0.157867
0.967987 0.663116 0.161133
0.997223 0.664063 0.164459
1.000000 0.669556 0.215485
0.287872 0.589264 0.033875
0.300507 0.597656 0.042358
0.313202 0.606018 0.050781
0.327454 0.613739 0.058624
0.343262 0.620758 0.065857
0.360199 0.627258 0.072571
0.378387 0.633240 0.078796
0.398041 0.638580 0.084503
0.418549 0.643555 0.089813
0.440155 0.648102 0.094788
0.462677 0.652191 0.099365
0.486023 0.655945 0.103699
0.509949 0.659393 0.107788
0.534637 0.662537 0.111664
0.559784 0.665466 0.115326
0.585388 0.668152 0.118896
0.611389 0.670685 0.122345
0.637787 0.673065 0.125732
0.664459 0.675293 0.128998
0.691620 0.677307 0.132233
0.718811 0.679260 0.135376
0.746338 0.681091 0.138550
0.774109 0.682770 0.141663
0.802155 0.684357 0.144806
0.830200 0.685883 0.147888
0.858582 0.687286 0.151031
0.887115 0.688599 0.154175
0.915741 0.689850 0.157318
0.944519 0.691010 0.160492
0.973480 0.692139 0.163727
1.000000 0.693481 0.172333
1.000000 0.698853 0.231598
0.301178 0.614594 0.034515
0.313538 0.623138 0.043121
0.326111 0.631592 0.051636
0.340271 0.639343 0.059509
0.355621 0.646545 0.066925
0.372162 0.653229 0.073761
0.390259 0.659271 0.080109
0.409363 0.664856 0.085999
0.429474 0.670013 0.091461
0.450806 0.674591 0.096497
0.472839 0.678894 0.101227
0.495789 0.682800 0.105682
0.519501 0.686371 0.109863
0.543701 0.689758 0.113892
0.568604 0.692810 0.117676
0.593933 0.695618 0.121307
0.619659 0.698273 0.124847
0.645752 0.700775 0.128265
0.672211 0.703094 0.131592
0.699127 0.705200 0.134857
0.726105 0.707275 0.138062
0.753510 0.709198 0.141266
0.781067 0.711029 0.144440
0.808807 0.712708 0.147522
0.836823 0.714294 0.150665
0.864899 0.715851 0.153778
0.893280 0.717224 0.156921
0.921814 0.718536 0.160065
0.950378 0.719818 0.163177
0.979126 0.721008 0.166351
1.000000 0.722870 0.187500
1.000000 0.727600 0.250061
0.314331 0.640045 0.035278
0.326691 0.648590 0.043915
0.339050 0.657074 0.052429
0.352844 0.664978 0.060425
0.367981 0.672302 0.067902
0.384338 0.679047 0.074860
0.401886 0.685364 0.081390
0.420654 0.691132 0.087433
0.440643 0.696320 0.093018
0.461365 0.701172 0.098206
0.483246 0.705536 0.103058
0.505859 0.709595 0.107635
0.529114 0.713379 0.112000
0.553040 0.716827 0.116058
0.577545 0.720032 0.119934
0.602539 0.723022 0.123657
0.628113 0.725830 0.127319
0.653961 0.728424 0.130798
0.680298 0.730804 0.134186
0.706848 0.733063 0.137482
0.733673 0.735229 0.140747
0.760773 0.737244 0.143951
0.788086 0.739166 0.147095
0.815704 0.740906 0.150238
0.843506 0.742615 0.153412
0.871460 0.744232 0.156525
0.899628 0.745758 0.159637
0.927917 0.747162 0.162750
0.956390 0.748505 0.165894
0.985046 0.749756 0.169037
1.000000 0.751831 0.205322
1.000000 0.755890 0.271423
0.327484 0.665497 0.035980
0.339569 0.674133 0.044678
0.352112 0.682587 0.053253
0.365570 0.690613 0.061310
0.380432 0.698029 0.068909
0.396515 0.704926 0.075989
0.413818 0.711304 0.082611
0.432220 0.717194 0.088745
0.451874 0.722534 0.094452
0.472260 0.727570 0.099823
0.493744 0.732178 0.104889
0.515961 0.736389 0.109558
0.539001 0.740234 0.113953
0.562561 0.743896 0.118195
0.586792 0.747192 0.122162
0.611511 0.750336 0.126007
0.636749 0.753204 0.129669
0.662354 0.755920 0.133240
0.688324 0.758514 0.136719
0.714691 0.760864 0.140076
0.741394 0.763092 0.143402
0.768219 0.765228 0.146606
0.795410 0.767212 0.149811
0.822784 0.769104 0.152985
0.850403 0.770844 0.156097
0.878204 0.772552 0.159271
0.906128 0.774170 0.162384
0.934296 0.775635 0.165466
0.962585 0.777069 0.168579
0.991058 0.778442 0.171753
1.000000 0.780212 0.226074
1.000000 0.783661 0.295715
0.340637 0.690918 0.036682
0.352631 0.699615 0.045441
0.365021 0.708130 0.054047
0.378479 0.716187 0.062225
0.393097 0.723694 0.069855
0.408783 0.730774 0.077087
0.425873 0.737213 0.083801
0.443909 0.743286 0.090088
0.463196 0.748810 0.095947
0.483337 0.753937 0.101440
0.504425 0.758636 0.106537
0.526337 0.763000 0.111359
0.548859 0.767090 0.115906
0.572235 0.770782 0.120209
0.596161 0.774323 0.124359
0.620605 0.777527 0.128265
0.645538 0.780548 0.132019
0.670868 0.783386 0.135651
