Demon Slayer/OpenGL_Framework/OpenGL_Framework/Assets/LUTs/warm.CUBE
#Created by: Adobe Photoshop Export Color Lookup Plugin
TITLE "Warm"
#LUT size
LUT_3D_SIZE 8
#data domain
#LUT data points
DOMAIN_MIN 0.000000 0.000000 0.000000
DOMAIN_MAX 0.903226 0.903226 0.903226
0.000000 0.000000 0.000000
0.108459 0.008820 0.008820
0.223328 0.014893 0.014893
0.338104 0.020996 0.020996
0.452789 0.027161 0.027161
0.567474 0.033295 0.033295
0.682159 0.039429 0.039429
0.796906 0.045563 0.045563
0.039368 0.105408 0.019379
0.143188 0.115601 0.033478
0.260376 0.119049 0.047119
0.386444 0.116974 0.066437
0.525787 0.105804 0.098114
0.644714 0.108948 0.108948
0.759186 0.115173 0.115173
0.873718 0.121399 0.121399
0.089844 0.208038 0.023285
0.174530 0.226807 0.043579
0.281708 0.235443 0.056854
0.397064 0.239960 0.069733
0.517761 0.241425 0.084808
0.643402 0.239594 0.103668
0.776703 0.232666 0.129608
0.928894 0.212585 0.173981
0.142548 0.309753 0.026123
0.214478 0.334045 0.051483
0.311584 0.347321 0.067474
0.420380 0.355194 0.080322
0.535126 0.360107 0.093018
0.653503 0.362946 0.106812
0.775269 0.363647 0.122650
0.900940 0.361908 0.141479
0.195343 0.411438 0.028992
0.259033 0.439301 0.057556
0.347046 0.456604 0.076782
0.449493 0.467407 0.091064
0.559265 0.474884 0.103790
0.673370 0.480133 0.116364
0.790588 0.483673 0.129700
0.910461 0.485596 0.144257
0.248169 0.513062 0.031769
0.306488 0.543274 0.062561
0.386749 0.563934 0.084656
0.482605 0.577789 0.101013
0.587677 0.587402 0.114563
0.698029 0.594574 0.127197
0.811829 0.599976 0.139771
0.928253 0.603943 0.152802
0.301178 0.614594 0.034515
0.355621 0.646545 0.066925
0.429474 0.670013 0.091461
0.519501 0.686371 0.109863
0.619659 0.698273 0.124847
0.726105 0.707275 0.138062
0.836823 0.714294 0.150665
0.950378 0.719818 0.163177
0.353851 0.716339 0.037415
0.405640 0.749359 0.070801
0.474518 0.775024 0.097351
0.559082 0.793823 0.117828
0.654510 0.807831 0.134338
0.757172 0.818604 0.148529
0.864655 0.827087 0.161530
0.975525 0.834015 0.174103
0.025177 0.000610 0.057068
0.124695 0.013336 0.069214
0.235413 0.021362 0.076385
0.348877 0.028351 0.081146
0.463165 0.035156 0.085144
0.577911 0.041931 0.087433
0.693054 0.048798 0.088348
0.808533 0.055969 0.087128
0.066101 0.105927 0.072754
0.159943 0.120422 0.090790
0.273987 0.125427 0.104858
0.399261 0.123901 0.123352
0.538513 0.113281 0.152435
0.655853 0.118286 0.157562
0.770782 0.125366 0.158081
0.886017 0.132477 0.157471
0.111603 0.213257 0.065002
0.192139 0.233856 0.086914
0.296478 0.243958 0.100006
0.410797 0.249268 0.111298
0.531128 0.251495 0.123322
0.657166 0.250214 0.138275
0.791077 0.243988 0.158691
0.944672 0.224304 0.196930
0.163544 0.320007 0.042694
0.233582 0.345184 0.068665
0.329010 0.359406 0.084137
0.437012 0.367981 0.095398
0.551178 0.373413 0.106812
0.669342 0.376312 0.120850
0.791016 0.377075 0.136871
0.916290 0.375488 0.155701
0.214844 0.423279 0.041199
0.277771 0.451447 0.070160
0.364563 0.469269 0.089905
0.465942 0.480591 0.104584
0.575195 0.488281 0.117523
0.689026 0.493591 0.130280
0.806030 0.497253 0.143707
0.925812 0.499176 0.158386
0.266327 0.525543 0.044556
0.324188 0.555908 0.075500
0.403595 0.576935 0.097900
0.499084 0.590942 0.114532
0.603516 0.600861 0.128296
0.713562 0.608185 0.141083
0.827179 0.613617 0.153717
0.943390 0.617706 0.166840
0.318420 0.627472 0.047607
0.372620 0.659515 0.080048
0.446136 0.683105 0.104797
0.535583 0.699738 0.123444
0.635437 0.711761 0.138550
0.741638 0.720886 0.151917
0.852020 0.728027 0.164581
0.965515 0.733551 0.177185
0.370667 0.729401 0.050659
0.422180 0.762512 0.084137
0.490845 0.788269 0.110779
0.574951 0.807251 0.131409
0.670197 0.821381 0.148071
0.772614 0.832214 0.162354
0.879822 0.840851 0.175446
0.990631 0.847809 0.188080
0.057281 0.000031 0.101898
0.148071 0.011292 0.145569
0.250671 0.022705 0.156586
0.360474 0.031067 0.163910
0.472778 0.038452 0.170013
0.586243 0.045441 0.175079
0.700226 0.052246 0.179352
0.814667 0.059082 0.182831
0.104523 0.096252 0.148987
0.185150 0.116302 0.173126
0.292236 0.124054 0.191376
0.415192 0.123047 0.213470
0.550568 0.114258 0.243225
0.663727 0.121399 0.248413
0.777557 0.128326 0.252747
0.891724 0.135162 0.256348
0.139221 0.207214 0.151062
0.212463 0.230865 0.176483
0.310852 0.243378 0.192719
0.422333 0.249664 0.206787
0.540863 0.252258 0.221832
0.665619 0.251038 0.239777
0.799255 0.244171 0.264404
0.954468 0.222443 0.309448
0.182556 0.315094 0.146362
0.249084 0.341705 0.174011
0.340424 0.357544 0.191895
0.445770 0.367065 0.205383
0.558502 0.373138 0.217499
0.675934 0.376678 0.229950
0.797272 0.378082 0.243469
0.922760 0.376953 0.259308
0.231384 0.421997 0.131958
0.292694 0.450958 0.161407
0.376740 0.470032 0.181671
0.476349 0.482269 0.196167
0.584503 0.490753 0.207764
0.697693 0.496826 0.218323
0.814606 0.501099 0.228699
0.934448 0.503754 0.239288
0.284698 0.529968 0.099579
0.341522 0.560822 0.130829
0.419525 0.582703 0.152771
0.513519 0.597626 0.168182
0.617401 0.608337 0.179474
0.727112 0.616547 0.188293
0.840881 0.622955 0.195374
0.957520 0.628082 0.201721
0.340485 0.638184 0.058899
0.394043 0.670502 0.091675
0.466461 0.694580 0.116852
0.554688 0.711700 0.135986
0.653656 0.724152 0.151550
0.759094 0.733551 0.165161
0.869019 0.740906 0.178101
0.982086 0.746613 0.190857
0.391357 0.740692 0.062439
0.442413 0.774048 0.096100
0.510437 0.800079 0.123077
0.593658 0.819427 0.144073
0.688141 0.833893 0.161072
0.789825 0.845062 0.175629
0.896667 0.853821 0.188934
1.000000 0.859772 0.227386
0.088745 0.000031 0.145050
0.178864 0.006042 0.218506
0.271942 0.021545 0.233765
0.376587 0.032074 0.243683
0.485962 0.040619 0.251434
0.597473 0.048309 0.257935
0.710144 0.055542 0.263672
0.823639 0.062561 0.268738
0.150848 0.082703 0.224304
0.220917 0.107269 0.253265
0.319946 0.118195 0.276154
0.439941 0.117859 0.302948
0.563599 0.116333 0.325684
0.674835 0.124146 0.332336
0.787292 0.131500 0.338043
0.900574 0.138519 0.343170
0.176392 0.198029 0.227966
0.242157 0.224884 0.256439
0.333405 0.240417 0.276154
0.440369 0.248535 0.292633
0.556519 0.251953 0.309631
0.680054 0.250977 0.329773
0.813354 0.243744 0.357086
0.971954 0.219208 0.407928
0.212524 0.308472 0.229279
0.274139 0.337189 0.258850
0.360107 0.355286 0.279419
0.461670 0.366302 0.295013
0.571960 0.373291 0.308990
0.687622 0.377441 0.323090
0.807800 0.379028 0.338593
0.932587 0.377838 0.356598
0.255035 0.416534 0.225739
0.313232 0.446808 0.256622
0.393677 0.467407 0.278748
0.490051 0.480927 0.295166
0.596008 0.490173 0.308746
0.707489 0.496704 0.321320
0.823059 0.501221 0.333984
0.941986 0.503845 0.347382
0.301941 0.523560 0.216034
0.357025 0.555145 0.248047
0.432312 0.578064 0.271973
0.523651 0.593903 0.289764
0.625275 0.605225 0.303802
0.733215 0.613617 0.316193
0.845459 0.619995 0.327759
0.960968 0.624725 0.339355
0.351837 0.630463 0.198364
0.404510 0.663208 0.231262
0.475128 0.688110 0.256927
0.561707 0.706085 0.276062
0.659088 0.719360 0.291229
0.763550 0.729523 0.303802
0.872864 0.737488 0.315094
0.985474 0.743866 0.325348
0.404938 0.738312 0.167358
0.455627 0.771851 0.200958
0.522278 0.798553 0.227997
0.604248 0.818604 0.248688
0.697540 0.833862 0.264587
0.798584 0.845673 0.277496
0.904907 0.855164 0.288208
1.000000 0.861542 0.346893
0.119781 0.000031 0.189331
0.213196 0.000031 0.286743
0.298859 0.017975 0.308472
0.397156 0.031189 0.321259
0.502594 0.041443 0.330933
0.611572 0.050110 0.338806
0.722504 0.058075 0.345703
0.834656 0.065491 0.351837
0.202728 0.065704 0.303070
0.266815 0.092590 0.335754
0.359039 0.106049 0.364197
0.473816 0.107635 0.394440
0.580139 0.117126 0.405548
0.688843 0.125946 0.413544
0.799591 0.133942 0.420471
0.911621 0.141449 0.426697
0.218323 0.186798 0.302856
0.278595 0.216003 0.333832
0.362885 0.234436 0.357025
0.464417 0.244812 0.376038
0.577209 0.249573 0.395142
0.699280 0.248901 0.417542
0.833435 0.240540 0.448639
0.989777 0.217133 0.499603
0.248566 0.299744 0.306610
0.306458 0.330078 0.337921
0.386597 0.350647 0.361084
0.483246 0.363770 0.379028
0.590210 0.372070 0.394775
0.703552 0.377106 0.410309
0.822388 0.379150 0.427216
0.946106 0.378265 0.446533
0.285767 0.409729 0.307495
0.341309 0.441162 0.339569
0.417328 0.463562 0.363739
0.509735 0.478790 0.381958
0.612640 0.489258 0.397217
0.721985 0.496643 0.411255
0.836090 0.501648 0.425201
0.953796 0.504669 0.439789
0.327667 0.518005 0.304565
0.381104 0.550293 0.337402
0.453125 0.574585 0.362793
0.541351 0.591736 0.382172
0.640350 0.604095 0.397797
0.746307 0.613251 0.411499
0.857117 0.620087 0.424438
0.971436 0.625214 0.437347
0.373138 0.625305 0.297150
0.424713 0.658447 0.330658
0.493073 0.684296 0.357452
0.577026 0.703400 0.377991
0.672211 0.717529 0.394501
0.774963 0.728302 0.408600
0.882721 0.736694 0.421356
0.994263 0.743317 0.433411
0.421539 0.732117 0.284363
0.471344 0.766052 0.318481
0.536499 0.793304 0.346436
0.616394 0.814148 0.368408
0.707764 0.830078 0.386047
0.807098 0.842407 0.400787
0.912109 0.852234 0.413727
1.000000 0.860260 0.482849
0.150818 0.000031 0.233734
0.241455 0.000031 0.338654
0.329803 0.012695 0.381317
0.421753 0.028625 0.396973
0.522736 0.040741 0.408691
0.628510 0.050781 0.418121
0.737335 0.059601 0.426086
0.847870 0.067657 0.433197
0.262634 0.043304 0.388702
0.322479 0.071899 0.423920
0.407867 0.088196 0.455719
0.499542 0.104187 0.471771
0.600189 0.116455 0.483582
0.705719 0.126587 0.493103
0.814301 0.135468 0.501190
0.924744 0.143616 0.508392
0.264130 0.173523 0.378113
0.320648 0.204315 0.411011
0.398438 0.225464 0.436951
0.494812 0.238007 0.459167
0.603851 0.244110 0.480804
0.724731 0.243500 0.506409
0.861115 0.232941 0.542999
1.000000 0.220764 0.581451
0.288849 0.289307 0.381927
0.343475 0.320984 0.414612
0.418274 0.343842 0.440216
0.509796 0.359100 0.460480
0.612946 0.368988 0.478210
0.723633 0.375092 0.495361
0.840668 0.377777 0.513672
0.963470 0.377075 0.534515
0.321259 0.401245 0.385132
0.374420 0.433716 0.418213
0.446136 0.457947 0.444275
0.534271 0.474945 0.464539
0.633484 0.487000 0.481506
0.740326 0.495392 0.496918
0.852509 0.501160 0.512054
0.968872 0.504669 0.527740
0.358917 0.511047 0.385712
0.410645 0.544098 0.419281
0.479431 0.569733 0.446228
0.563965 0.588440 0.467194
0.659851 0.602112 0.484406
0.763428 0.612213 0.499420
0.872314 0.619812 0.513428
0.985260 0.625458 0.527313
0.400543 0.619415 0.383118
0.450775 0.653107 0.417236
0.516693 0.679993 0.445068
0.597717 0.700317 0.467102
0.690247 0.715546 0.484985
0.790741 0.727203 0.500214
0.896912 0.736267 0.514099
1.000000 0.745300 0.536407
0.445221 0.726837 0.377045
0.494232 0.761108 0.411560
0.557465 0.789185 0.440399
0.635040 0.811005 0.463531
0.724182 0.827789 0.482361
0.821533 0.840942 0.498260
0.924957 0.851349 0.512299
1.000000 0.862915 0.597595
0.181793 0.000031 0.278320
0.270721 0.000031 0.387970
0.363739 0.006165 0.452972
0.449799 0.024567 0.471161
0.545990 0.038757 0.484985
0.648315 0.050232 0.495972
0.754547 0.060150 0.505280
0.863098 0.069000 0.513397
0.318817 0.023651 0.470032
0.371338 0.056427 0.502747
0.441681 0.081635 0.527832
0.527466 0.100189 0.546143
0.623352 0.114471 0.560089
0.725494 0.126038 0.571198
0.831482 0.135986 0.580536
0.940002 0.144928 0.588654
0.313202 0.158325 0.454773
0.366821 0.190308 0.488983
0.439606 0.213562 0.517639
0.531097 0.227966 0.542877
0.637024 0.235046 0.567932
0.757233 0.233978 0.597870
0.900940 0.217621 0.645447
1.000000 0.230682 0.657196
0.332001 0.277466 0.456726
0.384277 0.310150 0.490601
0.454285 0.335022 0.518219
0.541077 0.352295 0.540833
0.640045 0.363922 0.560608
0.747864 0.371155 0.579529
0.862885 0.374573 0.599487
0.984406 0.374207 0.621979
0.360321 0.391327 0.460815
0.411438 0.424652 0.494812
0.479309 0.450562 0.522583
0.562927 0.469482 0.544891
0.658508 0.483002 0.563599
0.762207 0.492706 0.580475
0.872223 0.499390 0.596924
0.987000 0.503479 0.613770
0.394104 0.502686 0.463531
0.444244 0.536438 0.497803
0.509918 0.563385 0.526062
0.590668 0.583679 0.548798
0.683167 0.598785 0.567505
0.783936 0.610077 0.583893
0.890686 0.618591 0.599060
1.000000 0.625671 0.614929
0.432251 0.612305 0.463928
0.481110 0.646576 0.498505
0.544647 0.674469 0.527466
0.622650 0.696075 0.550873
0.712128 0.712555 0.570160
0.810150 0.725311 0.586700
0.914246 0.735168 0.601563
1.000000 0.750580 0.637024
0.473572 0.720734 0.461578
0.521667 0.755371 0.496552
0.582886 0.784302 0.526245
0.657959 0.807190 0.550568
0.744598 0.825043 0.570587
0.839783 0.839050 0.587585
0.941254 0.850281 0.602631
1.000000 0.868225 0.698242
0.212738 0.000031 0.322968
0.300568 0.000031 0.435455
0.398285 0.000031 0.520874
0.480713 0.019318 0.544098
0.572205 0.035492 0.559967
0.670807 0.048584 0.572662
0.774139 0.059692 0.583313
0.880463 0.069489 0.592438
0.361725 0.013245 0.537842
0.411987 0.046997 0.571533
0.477722 0.074158 0.598602
0.558197 0.094971 0.619232
0.649445 0.111237 0.635223
0.747894 0.124390 0.647980
0.851044 0.135529 0.658600
0.957275 0.145416 0.667877
0.366058 0.140808 0.534058
0.417389 0.173676 0.569397
0.486542 0.198303 0.600433
0.574066 0.214142 0.629028
0.677673 0.221588 0.658203
0.801300 0.217194 0.696777
0.929260 0.210999 0.732758
1.000000 0.241730 0.727051
0.377808 0.264191 0.531921
0.428040 0.297791 0.566589
0.494293 0.324219 0.596069
0.576599 0.343353 0.620850
0.671539 0.356628 0.642761
0.776245 0.365082 0.663635
0.889191 0.369232 0.685486
1.000000 0.374420 0.707397
0.402069 0.380219 0.535797
0.451508 0.414215 0.570496
0.515991 0.441559 0.599823
0.595490 0.462219 0.623932
0.687134 0.477448 0.644470
0.787750 0.488434 0.662994
0.895294 0.496063 0.680786
1.000000 0.505188 0.698212
0.432281 0.493164 0.539581
0.481018 0.527466 0.574432
0.543854 0.555664 0.604004
0.621002 0.577484 0.628296
0.709991 0.594086 0.648682
0.807831 0.606598 0.666504
0.912170 0.616089 0.682892
1.000000 0.633331 0.703003
0.467133 0.604065 0.541809
0.515015 0.638763 0.576935
0.576202 0.667664 0.606903
0.650970 0.690674 0.631744
0.737518 0.708405 0.652405
0.832733 0.722290 0.670227
0.934540 0.733124 0.686279
1.000000 0.758118 0.725555
0.505463 0.713531 0.542084
0.552643 0.748596 0.577423
0.612061 0.778290 0.607971
0.684570 0.802277 0.633392
0.768402 0.821289 0.654663
0.861115 0.836395 0.672821
0.960571 0.848450 0.688965
1.000000 0.876282 0.783905
